!!!COM: Beethoven, Ludwig van
!!!CDT: 1770///-1827///
!!!ODT: 1806///
!!!OTL: String Quartet No. 7 in F Major, Op. 59, No. 1
!!!OPS: Op. 59
!!!ONM: No. 1
!!!OMV: Mvmt. 3
!!!OMD: Adagio molto e mesto
!!!PDT: 1808///
!!!PPP: Vienna
!!!ODE: Dem Grafen Rasoumoffsky gewidmet
!!!ONB: Op. 59 are called the Rasumovsky Quartets
!!!MPD: 1806///
**kern	**dynam	**kern	**dynam	**kern	**dynam	**kern	**dynam
*staff4	*staff4	*staff3	*staff3	*staff2	*staff2	*staff1	*staff1
*Icello	*Icello	*Iviola	*Iviola	*Ivioln	*Ivioln	*Ivioln	*Ivioln
*clefF4	*clefF4	*clefC3	*clefC3	*clefG2	*clefG2	*clefG2	*clefG2
*k[b-e-a-d-]	*k[b-e-a-d-]	*k[b-e-a-d-]	*k[b-e-a-d-]	*k[b-e-a-d-]	*k[b-e-a-d-]	*k[b-e-a-d-]	*k[b-e-a-d-]
*f:	*f:	*f:	*f:	*f:	*f:	*f:	*f:
*M2/4	*M2/4	*M2/4	*M2/4	*M2/4	*M2/4	*M2/4	*M2/4
*MM28	*MM28	*MM28	*MM28	*MM28	*MM28	*MM28	*MM28
=1-	=1-	=1-	=1-	=1-	=1-	=1-	=1-
2r	.	2r	.	4r	.	2r	.
.	.	.	.	[4c/	.	.	.
=2	=2	=2	=2	=2	=2	=2	=2
4r	p	(4F/	p	2c/_	p	(8cc\L	.
.	.	.	.	.	.	16.ee-\L	.
.	.	.	.	.	.	32dd-\JJk	.
[4C/	.	4G/	.	.	.	8f/L	.
.	.	.	.	.	.	8en/J)	.
=3	=3	=3	=3	=3	=3	=3	=3
8C/L]	p	8A-/L	.	8c/L]	.	(8f/L	.
8C/J	.	8En/J	.	[8c/J	.	16.cc/L	.
.	.	.	.	.	.	32g/JJk	.
8FF/L	.	8G/L	.	8c/L]	.	8b-/L	.
[8F/J	.	16F/Jk)	.	16c/Jk	.	16a-/Jk)	.
.	.	16r	.	16r	.	16r	.
=4	=4	=4	=4	=4	=4	=4	=4
(8F\L]	.	(8A-/L	.	8r	.	(8..cc\L	.
8A-\J	.	8c/J	.	(8f/	.	.	.
.	.	.	.	.	.	32ff\Jkk)	.
8.G\L	.	8d-\L	.	8.b-/L	.	(8ff\L	.
.	.	16c\L)	.	.	.	16een\L	.
*	*	*	*	*	*	*^	*
16F\Jk)	.	16c\JJ	.	16a-/Jk)	.	16ff\JJ)	48ff\	.
.	.	.	.	.	.	.	48gg\	.
.	.	.	.	.	.	.	48ff\	.
*	*	*	*	*	*	*v	*v	*
=5	=5	=5	=5	=5	=5	=5	=5
.	.	.	.	.	.	eeq/LL	.
.	.	.	.	.	.	ffq/JJ	.
(16En\LL	.	(16c\LL	.	(16g/LL	.	(16gg\LL	.
16C\)	.	16g\)	.	16b-/)	.	16cc\)	.
(16F'\	.	(16f'\	.	(16a-'/	.	(16cc'\	.
16A-'\JJ)	.	16f'\JJ)	.	16a-'/JJ)	.	16bn'\JJ)	.
4c\	.	(8f\L	.	(8a-/L	.	(8b\L	.
.	.	8en\J)	.	8g/J)	.	8cc\J)	.
=6	=6	=6	=6	=6	=6	=6	=6
(8B-\L	p	4e-\	p	(4g/	p	(8dd-\L	.
8d-\J	.	.	.	.	.	16.b-\L	.
.	.	.	.	.	.	32ee-\JJk)	.
8.c\L	.	(8e-\L	.	8.a-/L	p	(8.ee-\L	.
.	.	16.a-\L	.	.	.	.	.
16A-\Jk)	.	.	.	16c/Jk)	.	16cc\Jk)	.
.	.	32e-\JJk)	.	.	.	.	.
=7	=7	=7	=7	=7	=7	=7	=7
(8B-\L	.	4e-\	.	8G/L	.	(16ee-\LL	.
.	.	.	.	.	.	16dd-\	.
8d-\J	.	.	.	(8g/J	.	16.b-\	.
.	.	.	.	.	.	32ee-\JJk)	.
8.c\L	.	8e-\L	.	8.a-/L	.	4ee-\	.
.	.	16.a-\L	.	.	.	.	.
16A-\Jk)	.	.	.	16cc/Jk)	.	.	.
.	.	32c\JJk	.	.	.	.	.
=8	=8	=8	=8	=8	=8	=8	=8
4G\	f	4B-/	f	4c/ 4en/	.	4cc\ 4een\	f
8..F\L	.	8..A-/L	.	8c/L 8f/	.	8..cc\L 8..ff\	.
.	.	.	.	(8a-/J	.	.	.
32D-\Jkk	.	32F/Jkk	.	.	.	32f\Jkk	.
=9	=9	=9	=9	=9	=9	=9	=9
(8BB-/L	.	(8f\L	.	8b-/L	.	(8dd-\L	.
8C/J)	.	8en\J)	.	8g/J)	.	8cc\J)	.
(8.C\L	.	(16e/LL	.	(16g/LL	.	[4cc\	.
.	.	16B-/	.	16en/	.	.	.
.	.	16A-/	.	16f/	.	.	.
16c\Jk)	.	16En/JJ)	.	16b-/JJ)	.	.	.
=10	=10	=10	=10	=10	=10	=10	=10
*clefC4	*clefG2	*	*	*	*	*	*
(8c\L	p	(4F/	p	(4a-/	p	4cc\]	p
16.e-\L	.	.	.	.	.	.	.
32d-\JJk	.	.	.	.	.	.	.
8F/L	.	[4C/)	.	8g/L	.	(16b-\LK	.
.	.	.	.	.	.	8aa-\	.
16En/Jk)	.	.	.	8b-/J)	.	.	.
16r	.	.	.	.	.	[16gg\Jk)	.
=11	=11	=11	=11	=11	=11	=11	=11
(8F/L	.	8C/L]	.	(8a-\L	.	16gg\LK]	.
.	.	.	.	.	.	8ff\	.
16.c/L	.	8C/J	.	16b-\L	.	.	.
.	.	.	.	16cc\JJ)	.	[16een\Jk	.
32G/JJk	.	.	.	.	.	.	.
8B-/L	.	8.F/	.	4cc\	.	16ee\LL]	.
*	*	*	*	*	*	*^	*
.	.	.	.	.	.	(16ee\	48ee\	.
.	.	.	.	.	.	.	48ff#\	.
.	.	.	.	.	.	.	48ff\	.
*	*	*	*	*	*	*v	*v	*
.	.	.	.	.	.	ddnq/LL	.
.	.	.	.	.	.	eeq/JJ	.
16A-/Jk)	.	.	.	.	.	16gg\	.
16r	.	16r	.	.	.	16ff\JJ)	.
=12	=12	=12	=12	=12	=12	=12	=12
(8..c\L	.	(8F/L	.	8r	.	8r	.
.	.	8A-/J	.	(8cc\	.	(16ff\LL	.
.	.	.	.	.	.	[16ccc\JJ)	.
32f\Jkk)	.	.	.	.	.	.	.
(8f\L	.	8.G/L	.	8dd-\L	.	16ccc\LK]	.
.	.	.	.	.	.	8bb-\	.
16en\L	.	.	.	16cc\L)	.	.	.
16f\JJ)	.	16F/Jk)	.	(16cc\JJ	.	[16aa-\Jk	.
=13	=13	=13	=13	=13	=13	=13	=13
eq/LL	.	.	.	.	.	.	.
fq/JJ	.	.	.	.	.	.	.
16g\LL	.	(16En/LL	.	16b-/LL)	.	16aa-\LL]	.
16c\	.	16C/)	.	(16b-/	.	[16gg\	.
(16c\	.	(16F'/	.	16a-/)	.	16gg\]	.
16Bn\JJ)	.	16A-'/JJ)	.	16a-/JJ	.	16ff\JJ	.
(8B\L	.	4C/	.	(8a-/L	.	(8ff\L	.
8c\J)	.	.	.	8g/J)	.	8een\J)	.
=14	=14	=14	=14	=14	=14	=14	=14
(8d-\L	p	(8D-/L	.	(4g/ 4b-/	.	4ee-\	p
16.B-\L	.	8E-/J	.	.	.	.	.
32e-\JJk)	.	.	.	.	.	.	.
(8.e-\L	.	8.C/L	.	4a-\) 4cc\	p	(8ee-\LLK	.
.	.	.	.	.	.	ffq/LL	.
.	.	.	.	.	.	ee-q/	.
.	.	.	.	.	.	ddnq/	.
.	.	.	.	.	.	ee-q/JJ	.
.	.	.	.	.	.	16.aa-\	.
16c\Jk)	.	16E-/Jk)	.	.	.	.	.
.	.	.	.	.	.	32ee-\JJk)	.
=15	=15	=15	=15	=15	=15	=15	=15
(16e-\LL	.	(8D-/L	.	(4g/ 4b-/	.	4ee-\	.
16d-\	.	.	.	.	.	.	.
16.B-\	.	16E-/L	.	.	.	.	.
.	.	16Dn/JJ	.	.	.	.	.
32e-\JJk)	.	.	.	.	.	.	.
4e-\	.	8C/L	.	8a-/L) 8cc/	.	(8.ee-\L	.
.	.	8A-/J)	.	8c/J	.	.	.
.	.	.	.	.	.	32dd-\LL	.
.	.	.	.	.	.	32cc\JJJ)	.
=16	=16	=16	=16	=16	=16	=16	=16
4en\	f	4G/ 4B-/	f	4c/	f	4cc\	f
8..f\L	f	(8..F/L 8..A-/	f	(8c/L	f	(8cc\L	f
.	.	.	.	8f/J)	.	8ff\J	.
32F\Jkk	.	32D-/Jkk)	.	.	.	.	.
=17	=17	=17	=17	=17	=17	=17	=17
*	*	*	*	*^	*	*	*
(8d-\L	.	(8D-/L	.	8f/L	(4G\	.	8b-/L	.
8c\	.	8C/	.	8en/J	.	.	8cc/	.
*	*	*	*	*v	*v	*	*	*
8F\J)	.	8F/J)	.	8A-/) 8f/	.	8f/J)	.
*clefF4	*clefF4	*	*	*	*	*	*
16.r	.	8r	.	8r	.	8r	.
32FF/	.	.	.	.	.	.	.
=18	=18	=18	=18	=18	=18	=18	=18
*	*	*	*	*^	*	*	*
(8D-/L	.	4r	.	2ryy	2r	.	2r	.
8C/J)	.	.	.	.	.	.	.	.
[4BBn/	.	(8a-\L	.	.	.	.	.	.
.	.	8g\J	.	.	.	.	.	.
*	*	*	*	*v	*v	*	*	*
=19	=19	=19	=19	=19	=19	=19	=19
(8BB/L]	.	8f\L	.	(8aa-\L	.	4r	.
8C/J	.	8e-\J	.	8gg\J	.	.	.
8A-\L	.	8c\L)	.	8ff\L	.	(8eee-\L	.
8An\J)	.	8c\J	.	8ff#\J)	.	8dddn\J)	.
=20	=20	=20	=20	=20	=20	=20	=20
(4G\	.	(4Bn/	.	(4gg\	.	(8dddn\	.
.	.	.	.	.	.	4eee-\	.
8A-\L	.	8c\L)	.	8ff#\L)	.	.	.
8An\J)	.	8c\J	.	8ff#\J	.	8ddd\)	.
=21	=21	=21	=21	=21	=21	=21	=21
8.G\L	.	8.Bn\L	.	8.gg\L	.	(8dddn\	.
.	.	.	.	.	.	4eee-\	.
16gg\Jk	.	(16bn\Jk	.	(16gg\Jk	.	.	.
8aa-\L	.	8cc\L)	.	8ff#\L)	.	.	.
8aan\J	.	8cc\J	.	8ff#\J	.	8ddd\)	.
=22	=22	=22	=22	=22	=22	=22	=22
*clefC4	*clefG2	*	*	*	*	*	*
[2g\	f	8g\	f	8bn\L 8gg\	f	8dddn\L	f
.	.	.	.	cccq/LL	.	eee-q/LL	.
.	.	.	.	bbnq/	.	dddq/	.
.	.	.	.	aanq/JJ	.	cccq/JJ	.
.	.	8r	.	(32bb\LL	.	(32ddd\LL	.
.	.	.	.	32dddn\)	.	32fff\)	.
.	.	.	.	32ccc'\	.	32eee-'\	.
.	.	.	.	32bb'\JJ	.	32ddd'\JJ	.
.	.	8c\	.	8ccc\J	.	8eee-\J	.
.	.	.	.	dddq/LL	.	fffq/LL	.
.	.	.	.	cccq/	.	eee-q/	.
.	.	.	.	bbq/JJ	.	dddq/JJ	.
.	.	8r	.	(32ccc\LLL	.	(32eee-\LLL	.
.	.	.	.	32eee-\)	.	32ggg\)	.
.	.	.	.	32ddd\	.	32fff\	.
.	.	.	.	32ccc\JJJ	.	32eee-\JJJ	.
=23	=23	=23	=23	=23	=23	=23	=23
8g\]	.	8G/	.	8bbn\L	.	(8dddn\	.
*clefF4	*clefF4	*	*	*	*	*	*
(32G/LLL	.	(32dn\LLL	.	(32bn\LL	.	4g\) 4gg\	.
32GG/)	.	32a-\)	.	32ff\)	.	.	.
32AAn'/	.	32g'\	.	32ee-'\	.	.	.
32BBn'/JJJ	.	32f'\JJJ	.	32ddn'\JJJ	.	.	.
8C/	.	8e-\L	.	8cc\L	.	.	.
.	.	fq/LL	.	ddq/LL	.	.	.
.	.	e-q/	.	ccq/	.	.	.
.	.	dq/JJ	.	bq/JJ	.	.	.
(32C/LLL	.	(32e-\LL	.	(32cc\LL	.	[8G/ [8g/	.
32CC/)	.	32g\)	.	32ee-\)	.	.	.
32EE-'/	.	32f'\	.	32dd'\	.	.	.
32FF'/JJJ	.	32e-'\JJJ	.	32cc'\JJJ	.	.	.
=24	=24	=24	=24	=24	=24	=24	=24
4GG/	.	4dn\	.	4bn\	.	32G/LLL] 32g/]	.
.	.	.	.	.	.	(32g/	.
.	.	.	.	.	.	32G/	.
.	.	.	.	.	.	32g/JJJ	.
.	.	.	.	.	.	32Bn/LLL	.
.	.	.	.	.	.	32g/	.
.	.	.	.	.	.	32dn/	.
.	.	.	.	.	.	32g/JJJ	.
4r	.	4r	.	4r	.	32f#/LLL	.
.	.	.	.	.	.	32g/	.
.	.	.	.	.	.	32bn/	.
.	.	.	.	.	.	32g/JJJ	.
.	.	.	.	.	.	32ddn\LLL	.
.	.	.	.	.	.	32g\	.
.	.	.	.	.	.	32ff\	.
.	.	.	.	.	.	32g\JJJ)	.
=25	=25	=25	=25	=25	=25	=25	=25
*clefC4	*clefC4	*	*	*	*	*	*
(8c\L	.	2r	.	2r	p	(32ee-\LLL	.
.	.	.	.	.	.	32g\	.
.	.	.	.	.	.	32cc\	.
.	.	.	.	.	.	32g\JJJ	.
8e-\J	.	.	.	.	.	32bn\LLL	.
.	.	.	.	.	.	32g\	.
.	.	.	.	.	.	32cc\	.
.	.	.	.	.	.	32g\JJJ	.
8.g\L	.	.	.	.	.	32b\LLL	.
.	.	.	.	.	.	32g\	.
.	.	.	.	.	.	32cc\	.
.	.	.	.	.	.	32g\JJJ	.
.	.	.	.	.	.	32ddn\LLL	.
.	.	.	.	.	.	32g\	.
16c\Jk)	.	.	.	.	.	32ee-\	.
.	.	.	.	.	.	32g\JJJ)	.
=26	=26	=26	=26	=26	=26	=26	=26
(8Bn\L	.	2r	.	2r	.	(32ff\LLL	.
.	.	.	.	.	.	32g\	.
.	.	.	.	.	.	32ee-\	.
.	.	.	.	.	.	32g\JJJ	.
8dn\J	.	.	.	.	.	32ddn\LLL	.
.	.	.	.	.	.	32g\	.
.	.	.	.	.	.	32cc\	.
.	.	.	.	.	.	32g\JJJ	.
8.g\L	.	.	.	.	.	32bn\LLL	.
.	.	.	.	.	.	32g\	.
.	.	.	.	.	.	32dd\	.
.	.	.	.	.	.	32g\JJJ	.
.	.	.	.	.	.	32a-\LLL	.
.	.	.	.	.	.	32g\	.
16f\Jk)	.	.	.	.	.	32b\	.
.	.	.	.	.	.	32g\JJJ)	.
=27	=27	=27	=27	=27	=27	=27	=27
(16e-\LL	.	2c\	p	32r	.	(8cc\L	.
.	.	.	.	(32g\LLL	.	.	.
16c\	.	.	.	32ee-\	.	.	.
.	.	.	.	32g\JJJ)	.	.	.
16Bn\	.	.	.	32r	.	8ee-\J	.
.	.	.	.	(32g\LLL	.	.	.
16c\JJ	.	.	.	32ee-\	.	.	.
.	.	.	.	32g\JJJ)	.	.	.
16B\LL	.	.	.	32r	.	8.gg\L	.
.	.	.	.	(32g\LLL	.	.	.
16c\	.	.	.	32ee-\	.	.	.
.	.	.	.	32g\JJJ	.	.	.
16dn\	.	.	.	32ff\LLL	.	.	.
.	.	.	.	32g\	.	.	.
16e-\JJ	.	.	.	32gg\	.	16cc\Jk)	.
.	.	.	.	32g\JJJ)	.	.	.
=28	=28	=28	=28	=28	=28	=28	=28
16f\LL	.	[4G/	p	32r	.	(8bn\L	.
.	.	.	.	(32g\LLL	.	.	.
16e-\	.	.	.	32gg\	.	.	.
.	.	.	.	32g\JJJ)	.	.	.
16dn\	.	.	.	(32ff\LLL	.	8ddn\J	.
.	.	.	.	32g\	.	.	.
16c\JJ	.	.	.	32ee-\	.	.	.
.	.	.	.	32g\JJJ)	.	.	.
16Bn\LL	.	8G/_	.	(32ddn\LLL	.	8.gg\L	.
.	.	.	.	32g\	.	.	.
16d\	.	.	.	32ff\	.	.	.
.	.	.	.	32g\JJJ)	.	.	.
16G\	.	32G/LLL]	.	(32bn\LLL	.	.	.
.	.	(32G/	.	32g\	.	.	.
16F\JJ)	.	32dn/	.	32dd\	.	16bbn\Jk)	.
.	.	32G/JJJ)	.	32g\JJJ)	.	.	.
=29	=29	=29	=29	=29	=29	=29	=29
*clefF4	*clefF4	*	*	*	*	*	*
(8E-/L	.	32r	.	4r	.	(8ccc\L	.
.	.	(32c\LLL	.	.	.	.	.
.	.	32e-\	.	.	.	.	.
.	.	32c\JJJ	.	.	.	.	.
8C/	.	32g\LLL	.	.	.	8eee-\J	.
.	.	32c\	.	.	.	.	.
.	.	32e-\	.	.	.	.	.
.	.	32c\JJJ)	.	.	.	.	.
8.BB-/	.	4r	.	32r	.	8.ggg\L	.
.	.	.	.	(32g/LLL	.	.	.
.	.	.	.	32b-/	.	.	.
.	.	.	.	32g/JJJ	.	.	.
.	.	.	.	32ddn\LLL	.	.	.
.	.	.	.	32g\	.	.	.
16Dn/Jk)	p	.	.	32b-\	.	16bb-\Jk)	p
.	.	.	.	32g\JJJ)	.	.	.
=30	=30	=30	=30	=30	=30	=30	=30
(8F/L	.	32r	.	4r	.	(8aa-\L	.
.	.	(32A-/LLL	.	.	.	.	.
.	.	32c/	.	.	.	.	.
.	.	32A-/JJJ	.	.	.	.	.
8AA-/	.	32f/LLL	.	.	.	8ccc\J	.
.	.	32A-/	.	.	.	.	.
.	.	32c/	.	.	.	.	.
.	.	32A-/JJJ)	.	.	.	.	.
8.GG/	.	4r	.	32r	.	8.eee-\L	.
.	.	.	.	(32e-/LLL	.	.	.
.	.	.	.	32g/	.	.	.
.	.	.	.	32e-/JJJ	.	.	.
.	.	.	.	32b-/LLL	.	.	.
.	.	.	.	32e-/	.	.	.
16BB-/Jk)	p	.	.	32g/	.	16gg\Jk)	p
.	.	.	.	32e-/JJJ)	.	.	.
=31	=31	=31	=31	=31	=31	=31	=31
(8D-/L	.	32r	.	4r	.	(8ff\L	.
.	.	(32F/LLL	.	.	.	.	.
.	.	32A-/	.	.	.	.	.
.	.	32F/JJJ	.	.	.	.	.
8FF/	.	32d-/LLL	.	.	.	8aa-\J	.
.	.	32F/	.	.	.	.	.
.	.	32A-/	.	.	.	.	.
.	.	32F/JJJ)	.	.	.	.	.
8.EE-/	.	32r	.	32r	.	8.ccc\L	.
.	.	(32G/LLL	.	(32g/LLL	.	.	.
.	.	32c/	.	32cc/	.	.	.
.	.	32G/JJJ	.	32g/JJJ	.	.	.
.	.	32e-/LLL	.	32ee-/LLL	.	.	.
.	.	32c/	.	32cc/	.	.	.
16C/Jk)	p	32g/	.	32gg/	.	16ee-\Jk)	p
.	.	32G/JJJ)	.	32g/JJJ)	.	.	.
=32	=32	=32	=32	=32	=32	=32	=32
[8DDn/L	.	4.G-/	.	(8an/	.	(8ccc\	.
32DD/LL]	.	.	.	4An/)	.	4dn/) 4cc/	.
32FF#/	.	.	.	.	.	.	.
32AAn/	.	.	.	.	.	.	.
32C/JJJ	.	.	.	.	.	.	.
32Dn\LLL	.	.	.	.	.	.	.
32F#\	.	.	.	.	.	.	.
32An\	.	.	.	.	.	.	.
32c\JJJ	.	.	.	.	.	.	.
(16c#\LL	.	(16.f#\LL	.	8r	.	8r	.
16dn\JJ)	.	.	.	.	.	.	.
.	.	32cc\JJk)	.	.	.	.	.
=33	=33	=33	=33	=33	=33	=33	=33
.	.	bnq/LLL	.	.	.	.	.
.	.	ccq/	.	.	.	.	.
.	.	dd#q/JJJ	.	.	.	.	.
[8GG/L	.	(8cc/L	.	8ff\	.	8dddn\	.
32GG/LL]	.	16bn/Jk)	.	4Bn/ 4dn/	.	4G/ 4f/	.
32BBn/	.	.	.	.	.	.	.
32Dn/	.	16r	.	.	.	.	.
32F/JJJ	.	.	.	.	.	.	.
32G\LLL	.	8r	.	.	.	.	.
32Bn\	.	.	.	.	.	.	.
32dn\	.	.	.	.	.	.	.
32f\JJJ	.	.	.	.	.	.	.
(16f#\LL	.	16r	.	8r	.	(16.bn\LL	.
16g\JJ)	.	16r	.	.	.	.	.
.	.	.	.	.	.	32ff\JJk)	.
=34	=34	=34	=34	=34	=34	=34	=34
32r	.	(16B-\LL	.	(16g/LL	.	(16ff\LL	.
(32CC/LLL	.	.	.	.	.	.	.
32C/)	.	32g\JJk)	.	32b-/JJk)	.	32een\JJk)	.
32C/JJJ	.	32r	.	32r	.	32r	.
32r	.	(16A-/LL	.	(16c/LL	.	(16ff\LL	.
(32FF/LLL	.	.	.	.	.	.	.
32F/)	.	32c/JJk)	.	32an/JJk)	.	32ee-\JJk)	.
32F/JJJ	.	32r	.	32r	.	32r	.
32r	.	(16A-\LL	.	(16f/LL	.	(16ee-\LL	.
(32BBn\LLL	.	.	.	.	.	.	.
32Bn\)	.	32f\JJk)	.	32a-/JJk)	.	32ddn\JJk)	.
32B\JJJ	.	32r	.	32r	.	32r	.
32r	.	(16G/LL	.	(16e-/LL	.	(16dd\LL	.
(32C\LLL	.	.	.	.	.	.	.
32c\)	.	32e-/JJk)	.	32g/JJk)	.	32cc\JJk)	.
32c\JJJ	.	32r	.	32r	.	32r	.
=35	=35	=35	=35	=35	=35	=35	=35
(32c\LLL	.	(32e-\LLL	.	(32g/LLL	.	(32cc\LLL	.
32d-\JJJ)	.	32g\JJJ)	.	32f/JJJ)	.	32b-\JJJ)	.
32r	.	32r	.	32r	.	32r	.
32dn\	.	32f\	.	32a-/	.	32bn\	.
(32d\LLL	.	(32f\LLL	.	(32a-/LLL	.	32b\LLL	.
32e-\JJJ)	.	32e-\JJJ)	.	32g/JJJ)	.	32cc\JJJ	.
16r	.	32r	.	16r	.	32r	.
.	.	32bn\	.	.	.	32dd-\	.
8r	.	(32b\LLL	.	32r	.	32ddn\LLL	.
.	.	32cc\)	.	32dd-\	.	&(32ee-\&)	.
.	.	(32cc\	.	(32dd-\LLL	.	32ee-\	.
.	.	32b-\JJJ)	.	32cc\)	.	&(32een\JJJ&)	.
16.r	.	(32b-\LLL	.	(32cc\	.	32ee\LLL	.
.	.	32a-\)	.	32b-\JJJ)	.	&(32ff\&)	.
.	.	(32a-\	.	16r	.	32ff\	.
64En\	.	32c\JJJ)	.	.	.	&(32gg\JJJ&)	.
64r	.	.	.	.	.	.	.
=36	=36	=36	=36	=36	=36	=36	=36
(32En\LLL	.	(32c\LLL	.	(32b-/LLL	.	(32gg\LLL	.
32F\)	.	32cc\)	.	32a-/)	.	32aa-\)	.
(32F\	.	(32cc\	.	32a-/	.	(32aa-\	.
32Dn\JJJ)	.	32f\JJJ)	.	32g/JJJ	.	32bbn\JJJ)	.
(32D/LLL	.	(32f\LLL	.	32g\LLL	.	(32bb\LLL	.
32E-/)	.	32g\)	.	&(32gg\&)	.	32ccc\)	.
(32E-/	.	(32g\	.	32gg\	.	(32ccc\	.
32BBn/JJJ)	.	32G\JJJ)	.	&(32ff\JJJ&)	.	32dddn\JJJ)	.
(32BB/LLL	.	(32G\LLL	.	32ff\LLL	.	(32ddd\LLL	.
32C/)	.	32g\)	.	&(32ee-\&)	.	32eee-\)	.
(32C/	.	(32g\	.	32ee-\	.	(32eee-\	.
32BB-/JJJ)	.	32c\JJJ)	.	&(32een\JJJ&)	.	32eeen\JJJ)	.
(32BB-/LLL	.	(32c\LLL	.	32ee\LLL	.	(32eee\LLL	.
32AA-/)	.	32cc\)	.	&(32ff\&)	.	32fff\)	.
(32GG/	.	(32en\	.	32gg\	.	(32ggg\	.
32FF/JJJ)	.	32f\JJJ)	.	&(32aa-\JJJ&)	.	32aaa-\JJJ)	.
=37	=37	=37	=37	=37	=37	=37	=37
8FF#'/	f	8cn'\ 8e-'\	.	8cc'\ 8aan'\	f	8aaan'\	f
8r	f	8r	.	8r	.	8r	.
8AA-'/	f	8C'/ 8c'/	f	8c'/ 8e-'/	.	8f#'/	f
8r	.	8r	.	8r	.	8r	.
=38	=38	=38	=38	=38	=38	=38	=38
8GG/	.	16c\	.	16e-/	.	8.G/ 8.g/	.
.	.	16r	.	16r	.	.	.
8r	.	(8c\L	.	(8e-/L	.	.	.
.	.	.	.	.	.	ggq/LL	.
.	.	.	.	.	.	bb-q/JJ	.
.	.	.	.	.	.	32.aa-\LLL	.
.	.	.	.	.	.	64gg\JJJk	.
4r	.	8dn\	.	8f/	.	16gg\	.
.	.	.	.	.	.	ggq/LL	.
.	.	.	.	.	.	bb-q/JJ	.
.	.	.	.	.	.	32.aa-\LLL	.
.	.	.	.	.	.	64gg\JJJk	.
.	.	8e-\J)	.	8g/J)	.	16gg\	.
.	.	.	.	.	.	ggq/LL	.
.	.	.	.	.	.	bb-q/JJ	.
.	.	.	.	.	.	32.aa-\LLL	.
.	.	.	.	.	.	64gg\JJJk	.
=39	=39	=39	=39	=39	=39	=39	=39
8r	.	(8f\L	.	(8a-/L	.	16gg\	.
.	.	.	.	.	.	16r	.
16r	.	8a-\	.	8ddn/	.	(8ff\L	.
GGq/LL	.	.	.	.	.	.	.
BB-q/JJ	.	.	.	.	.	.	.
32.AA-'/LLL	.	.	.	.	.	.	.
64GG'/JJJk	.	.	.	.	.	.	.
16GG/	.	8g\	.	8cc/	.	8ee-\	.
GGq/LL	.	.	.	.	.	.	.
BB-q/JJ	.	.	.	.	.	.	.
32.AA-'/LLL	.	.	.	.	.	.	.
64GG'/JJJk	.	.	.	.	.	.	.
16GG/LL	.	8bn\J)	.	8f/J)	.	8dd-\J)	.
GGq/LL	.	.	.	.	.	.	.
BB-q/JJ	.	.	.	.	.	.	.
32.AA-'/L	.	.	.	.	.	.	.
64GG'/JJJk	.	.	.	.	.	.	.
=40	=40	=40	=40	=40	=40	=40	=40
16CC/	.	16cc\	.	16e-/	.	16cc\	.
16r	.	16r	.	16r	.	32r	.
.	.	.	.	.	.	32gg\	.
8r	.	(8c\L	.	(8e-/L	.	32r	.
.	.	.	.	.	.	(64gg\LLLL	.
.	.	.	.	.	.	64bb-\J)	.
.	.	.	.	.	.	32aa-'\	.
.	.	.	.	.	.	32gg'\JJJ	.
4r	.	8dn\	.	8f/	.	32r	.
.	.	.	.	.	.	(64gg\LLLL	.
.	.	.	.	.	.	64bb-\J)	.
.	.	.	.	.	.	32aa-'\	.
.	.	.	.	.	.	32gg'\JJJ	.
.	.	8e-\J)	.	8g/J)	.	32r	.
.	.	.	.	.	.	(64gg\LLLL	.
.	.	.	.	.	.	64bb-\J)	.
.	.	.	.	.	.	32aa-'\	.
.	.	.	.	.	.	32gg'\JJJ	.
=41	=41	=41	=41	=41	=41	=41	=41
16.r	.	(8f\L	.	(8a-/L	.	16gg\	.
.	.	.	.	.	.	16r	.
32GG/	.	.	.	.	.	.	.
32r	.	8a-\	.	8ddn/	.	(8ff\L	.
(64GG/LLLL	.	.	.	.	.	.	.
64BB-/J)	.	.	.	.	.	.	.
32AA-'/	.	.	.	.	.	.	.
32GG'/JJJ	.	.	.	.	.	.	.
32r	.	8g\	.	8cc/	.	8ee-\	.
(64GG/LLLL	.	.	.	.	.	.	.
64BB-/J)	.	.	.	.	.	.	.
32AA-/	.	.	.	.	.	.	.
32GG'/JJJ	.	.	.	.	.	.	.
32r	.	8f\J)	.	8g/J)	.	8ddn\J)	.
(64GG/LLLL	.	.	.	.	.	.	.
64BBn/J)	.	.	.	.	.	.	.
32AAn'/	.	.	.	.	.	.	.
32GG'/JJJ	.	.	.	.	.	.	.
=42	=42	=42	=42	=42	=42	=42	=42
(8C/L	pp	(32e-/LLL	pp	(8g/L	pp	(8cc\L	pp
.	.	32G/	.	.	.	.	.
.	.	32c/	.	.	.	.	.
.	.	32G/JJJ)	.	.	.	.	.
8E-/	.	(32c/LLL	.	8cc/	.	8gg\J)	.
.	.	32G/	.	.	.	.	.
.	.	32g/	.	.	.	.	.
.	.	32G/JJJ)	.	.	.	.	.
8Dn/	.	(32f/LLL	.	8bn/	.	(8gg\L	.
.	.	32G/	.	.	.	.	.
.	.	32dn/	.	.	.	.	.
.	.	32G/JJJ)	.	.	.	.	.
8GG/J)	.	(32Bn/LLL	.	8ddn/J)	.	8bbn\J)	.
.	.	32G/	.	.	.	.	.
.	.	32F/	.	.	.	.	.
.	.	32G/JJJ)	.	.	.	.	.
=43	=43	=43	=43	=43	=43	=43	=43
(8.C/L	.	(32E-/LLL	.	(8.ee-\L	.	(8.ccc\L	.
.	.	32G/	.	.	.	.	.
.	.	32c/	.	.	.	.	.
.	.	32G/JJJ)	.	.	.	.	.
.	.	(32e-/LLL	.	.	.	.	.
.	.	32G/	.	.	.	.	.
16E-/k	.	32g/	.	16cc\Jk	.	16gg\Jk)	.
.	.	32G/JJJ)	.	.	.	.	.
8Dn/	.	(32f/LLL	.	8bn\L	.	(8gg\L	.
.	.	32G/	.	.	.	.	.
.	.	32dn/	.	.	.	.	.
.	.	32G/JJJ)	.	.	.	.	.
8GG/J)	.	(32Bn\LLL	.	8ddn\J)	.	8bbn\J)	.
.	.	32G\	.	.	.	.	.
.	.	32f\	.	.	.	.	.
.	.	32G\JJJ)	.	.	.	.	.
=44	=44	=44	=44	=44	=44	=44	=44
8C/	.	8e-\	.	8cc\	.	8ccc\	.
8r	.	16.r	.	16.r	.	16.r	.
.	.	32bn\	.	32ff\	.	32aa-\	.
8r	.	16cc\	.	16ee-\	.	16gg\	.
.	.	32r	.	32r	.	32r	.
.	.	32a-\	.	32dd-\	.	32ff\	.
16.r	.	16g\	.	16cc\	.	16ee-\	.
.	.	32r	.	32r	.	32r	.
32G\	.	32An/	.	32f/	.	32f/	.
=45	=45	=45	=45	=45	=45	=45	=45
8C/	.	8e-\	.	8e-/	.	8cc\	.
8r	.	16.r	.	16.r	.	8r	.
.	.	32f\	.	32a-/	.	.	.
16.r	.	16e-\	.	16g/	.	8r	.
.	.	32r	.	32r	.	.	.
32A-\	.	32dn\	.	32f/	.	.	.
16G\	.	16c\	.	16e-/	.	16.r	.
32r	.	32r	.	32r	.	.	.
32GG/	.	32F/	.	32Bn/ 32dn/	.	32G/ 32g/	.
=46	=46	=46	=46	=46	=46	=46	=46
8CC/	.	8E-/	.	8c/	.	8G/ 8g/	.
8r	.	8r	.	8r	.	8r	.
8B-\	.	8d-\	.	8g/	.	8ee-\	.
8r	.	8r	.	8r	.	8r	.
=47	=47	=47	=47	=47	=47	=47	=47
*clefC4	*clefC4	*	*	*	*	*	*
(8A-\L	.	2r	.	2r	.	(32cc\LLL	.
.	.	.	.	.	.	32ee-\	.
.	.	.	.	.	.	32a-\	.
.	.	.	.	.	.	32ee-\JJJ	.
8c\	.	.	.	.	.	32g\LLL	.
.	.	.	.	.	.	32ee-\	.
.	.	.	.	.	.	32a-\	.
.	.	.	.	.	.	32ee-\JJJ	.
8.e-\	.	.	.	.	.	32g\LLL	.
.	.	.	.	.	.	32ee-\	.
.	.	.	.	.	.	32a-\	.
.	.	.	.	.	.	32ee-\JJJ	.
.	.	.	.	.	.	32b-\LLL	.
.	.	.	.	.	.	32ee-\	.
16A-\Jk)	.	.	.	.	.	32cc\	.
.	.	.	.	.	.	32ee-\JJJ)	.
=48	=48	=48	=48	=48	=48	=48	=48
(8G\L	.	2r	.	4r	.	(32dd-\LLL	.
.	.	.	.	.	.	32ee-\	.
.	.	.	.	.	.	32cc\	.
.	.	.	.	.	.	32ee-\JJJ	.
8B-\	.	.	.	.	.	32b-\LLL	.
.	.	.	.	.	.	32ee-\	.
.	.	.	.	.	.	32a-\	.
.	.	.	.	.	.	32ee-\JJJ	.
8.e-\	.	.	.	8r	.	32g\LLL	.
.	.	.	.	.	.	32ee-\	.
.	.	.	.	.	.	32b-\	.
.	.	.	.	.	.	32ee-\JJJ	.
.	.	.	.	16r	.	32ff\LLL	.
.	.	.	.	.	.	32ee-\	.
16d-\Jk)	.	.	.	(16b-\	.	32gg\	.
.	.	.	.	.	.	32ee-\JJJ)	.
=49	=49	=49	=49	=49	=49	=49	=49
(16c\LL	.	2A-/	.	(8a-\L)	.	(32aa-\LLL	.
.	.	.	.	.	.	32ccc\	.
16A-\	.	.	.	.	.	32ee-\	.
.	.	.	.	.	.	32ccc\JJJ)	.
16G\	.	.	.	8cc\J	.	32r	.
.	.	.	.	.	.	(32ccc\LLL	.
16A-\JJ	.	.	.	.	.	32ee-\	.
.	.	.	.	.	.	32ccc\JJJ)	.
16G\LL	.	.	.	8.ee-\L	.	32r	.
.	.	.	.	.	.	(32ccc\LLL	.
16A-\	.	.	.	.	.	32ee-\	.
.	.	.	.	.	.	32ccc\JJJ)	.
16B-\	.	.	.	.	.	32r	.
.	.	.	.	.	.	(32ccc\LLL	.
16c\JJ)	.	.	.	16a-\Jk)	.	32ee-\	.
.	.	.	.	.	.	32ccc\JJJ)	.
=50	=50	=50	=50	=50	=50	=50	=50
(16d-\LL	.	[2E-/	.	(8g\L	.	32r	.
.	.	.	.	.	.	(32bb-\LLL	.
16c\	.	.	.	.	.	32ee-\	.
.	.	.	.	.	.	32bb-\JJJ)	.
16B-\	.	.	.	8b-\	.	32r	.
.	.	.	.	.	.	(32ddd-\LLL	.
16A-\JJ	.	.	.	.	.	32ee-\	.
.	.	.	.	.	.	32ddd-\JJJ)	.
16G/LL	.	.	.	8.ee-\	.	32r	.
.	.	.	.	.	.	(32gg\LLL	.
16B-/	.	.	.	.	.	32ee-\	.
.	.	.	.	.	.	32gg\JJJ)	.
16E-/	.	.	.	.	.	32r	.
.	.	.	.	.	.	(32bb-\LLL	.
16D-/JJ)	.	.	.	16g\Jk)	.	32ee-\	.
.	.	.	.	.	.	32bb-\JJJ)	.
=51	=51	=51	=51	=51	=51	=51	=51
*clefF4	*clefF4	*	*	*	*	*	*
(16C/LL	.	8E-/L]	.	(8a-\L	.	32r	.
.	.	.	.	.	.	(32ccc\LLL	.
16BB-/	.	.	.	.	.	32ee-\	.
.	.	.	.	.	.	32ccc\JJJ)	.
16AA-/	.	(16A-/L	.	8cc\	.	32r	.
.	.	.	.	.	.	(32ccc\LLL	.
16GG/JJ	.	16G/JJ	.	.	.	32ee-\	.
.	.	.	.	.	.	32ccc\JJJ)	.
16AA-/LL	.	16A-/LL	.	8ee-\	.	32r	.
.	.	.	.	.	.	(32ccc\LLL	.
16GG-/	.	16G-/	.	.	.	32aa-\	.
.	.	.	.	.	.	32ccc\JJJ)	.
16EE-/	.	16E-/	.	8gg-\J)	.	32r	.
.	.	.	.	.	.	(32aa-\LLL	.
16CC/JJ)	.	16C/JJ)	.	.	.	32eee-\	.
.	.	.	.	.	.	32aa-\JJJ)	.
=52	=52	=52	=52	=52	=52	=52	=52
(8DD-/L	.	(32D-/LLL	.	(8ff\L	.	(16aa-\LK	.
.	.	32A-/	.	.	.	.	.
.	.	32F/	.	.	.	8ddd-\	.
.	.	32A-/JJJ)	.	.	.	.	.
8FF/	.	32r	.	8dd-\	.	.	.
.	.	(32A-/LLL	.	.	.	.	.
.	.	32F/	.	.	.	8fff\)	.
.	.	32A-/JJJ)	.	.	.	.	.
8.AA-/	.	32r	.	8.a-\	.	.	.
.	.	(32A-/LLL	.	.	.	.	.
.	.	32F/	.	.	.	16aa-\L	.
.	.	32A-/JJJ	.	.	.	.	.
.	.	32F/LLL	.	.	.	16aa-\	.
.	.	32A-/	.	.	.	.	.
16DD-/Jk)	.	32F/	.	16ff\Jk)	.	16aa-\JJ	.
.	.	32A-/JJJ)	.	.	.	.	.
=53	=53	=53	=53	=53	=53	=53	=53
(8CC/L	.	32r	.	(8gg-\L	.	(16aa-\LK	.
.	.	(32A-/LLL	.	.	.	.	.
.	.	32E-/	.	.	.	8eee-\	.
.	.	32A-/JJJ)	.	.	.	.	.
8EE-/	.	32r	.	8ee-\	.	.	.
.	.	(32A-/LLL	.	.	.	.	.
.	.	32E-/	.	.	.	8ggg-\)	.
.	.	32A-/JJJ)	.	.	.	.	.
8.AA-/	.	32r	.	8.a-\	.	.	.
.	.	(32A-/LLL	.	.	.	.	.
.	.	32E-/	.	.	.	16aa-\L	.
.	.	32A-/JJJ	.	.	.	.	.
.	.	32E-/LLL	.	.	.	16aa-\	.
.	.	32A-/	.	.	.	.	.
16CC/Jk)	.	32E-/	.	16gg-\Jk)	.	16aa-\JJ	.
.	.	32A-/JJJ)	.	.	.	.	.
=54	=54	=54	=54	=54	=54	=54	=54
8CC/L	.	(4.C#/	.	32r	.	2gg#\	.
.	.	.	.	(32ee-\LLL	.	.	.
.	.	.	.	32cc#\	.	.	.
.	.	.	.	32ee-\JJJ)	.	.	.
8EEn/J	.	.	.	32r	.	.	.
.	.	.	.	(32ee-\LLL	.	.	.
.	.	.	.	32cc#\	.	.	.
.	.	.	.	32ee-\JJJ)	.	.	.
8GG#/L	.	.	.	32r	.	.	.
.	.	.	.	(32een\LLL	.	.	.
.	.	.	.	32cc#\	.	.	.
.	.	.	.	32ee\JJJ)	.	.	.
16.C#/L	.	8c#\)	.	32r	.	.	.
.	.	.	.	(32ee\LLL	.	.	.
.	.	.	.	32cc#\	.	.	.
32CC#/JJk	.	.	.	32ee\JJJ)	.	.	.
=55	=55	=55	=55	=55	=55	=55	=55
8CC#/L	.	2c#\	.	32r	.	2aan\	.
.	.	.	.	(32ff#\LLL	.	.	.
.	.	.	.	32cc#\	.	.	.
.	.	.	.	32ff#\JJJ)	.	.	.
8FF#/J	.	.	.	32r	.	.	.
.	.	.	.	(32ff#\LLL	.	.	.
.	.	.	.	32cc#\	.	.	.
.	.	.	.	32ff#\JJJ)	.	.	.
8AAn/L	.	.	.	32r	.	.	.
.	.	.	.	(32ff#\LLL	.	.	.
.	.	.	.	32cc#\	.	.	.
.	.	.	.	32ff#\JJJ)	.	.	.
16.C#/L	.	.	.	32r	.	.	.
.	.	.	.	(32ff#\LLL	.	.	.
.	.	.	.	32cc#\	.	.	.
32CC#/JJk	.	.	.	32ff#\JJJ)	.	.	.
=56	=56	=56	=56	=56	=56	=56	=56
8DDn/L	ff	(8Dn/L 8dn/	.	2an\ 2ff#\	ff	2an\ 2aan\	.
8FF#/	.	8F#/J 8d/	.	.	.	.	.
8AAn/	.	8An/L	.	.	.	.	.
16.Dn/L	.	16.d/L	.	.	.	.	.
32DD/JJk	.	32D/JJk)	.	.	.	.	.
=57	=57	=57	=57	=57	=57	=57	=57
4.Dn/	.	4.Dn/ 4.dn/	.	8an\ 8ff#\	.	(32ccc\LLL	.
.	.	.	.	.	.	32aan\)	.
.	.	.	.	.	.	32ff#'\	.
.	.	.	.	.	.	32ee-'\JJJ	.
.	.	.	.	4r	.	32cc'\LLL	.
.	.	.	.	.	.	32ee-'\	.
.	.	.	.	.	.	32b-'\	.
.	.	.	.	.	.	32ddn'\JJJ	.
.	.	.	.	.	.	32an'/LLL	.
.	.	.	.	.	.	32cc'/	.
.	.	.	.	.	.	32g'/	.
.	.	.	.	.	.	32b-'/JJJ	.
*clefC4	*clefG2	*	*	*	*	*	*
[8dn\	.	8D/	.	8r	.	32f#'/LLL	.
.	.	.	.	.	.	32a'/	.
.	.	.	.	.	.	32f#'/	.
.	.	.	.	.	.	32dd'/JJJ	.
=58	=58	=58	=58	=58	=58	=58	=58
(8d\L]	.	8G/	p	4r	.	32b-'/	.
.	.	.	.	.	.	32dn'/LLL	.
.	.	.	.	.	.	32B-'/	.
.	.	.	.	.	.	32d'/JJJ	.
16.f\L	.	8r	.	.	.	32G'/LLL	.
.	.	.	.	.	.	32d'/	.
.	.	.	.	.	.	32B-'/	.
32e-\JJk	.	.	.	.	.	32d'/JJJ	.
8G/L	.	8Dn/	.	[4ddn\	p	32An'/LLL	.
.	.	.	.	.	.	32d'/	.
.	.	.	.	.	.	32c'/	.
.	.	.	.	.	.	32d'/JJJ	.
8F#/J)	.	8r	.	.	.	32A'/LLL	.
.	.	.	.	.	.	32d'/	.
.	.	.	.	.	.	32c'/	.
.	.	.	.	.	.	32d'/JJJ	.
=59	=59	=59	=59	=59	=59	=59	=59
(8G\L	.	8B-/L	.	4.dd\]	.	32G/LLL	.
.	.	.	.	.	.	32dn/	.
.	.	.	.	.	.	32B-/	.
.	.	.	.	.	.	32d/JJJ	.
16.dn\L	.	8F#/J	.	.	.	32An/LLL	.
.	.	.	.	.	.	32d/	.
.	.	.	.	.	.	32c/	.
32An\JJk)	.	.	.	.	.	32d/JJJ	.
(8c\L	.	8G/L	.	.	.	32G/LLL	.
.	.	.	.	.	.	32d/	.
.	.	.	.	.	.	32B-/	.
.	.	.	.	.	.	32d/JJJ	.
16Bn\Jk)	.	8Fn/J	.	[8g/	.	32G/LLL	.
.	.	.	.	.	.	32d/	.
16r	.	.	.	.	.	32Bn/	.
.	.	.	.	.	.	32d/JJJ	.
=60	=60	=60	=60	=60	=60	=60	=60
*clefF4	*clefF4	*	*	*	*	*	*
32E-\LLL	.	4E-/	.	(8g/L]	.	8c/	.
32C\	.	.	.	.	.	.	.
32Dn\	.	.	.	.	.	.	.
32E-\JJJ	.	.	.	.	.	.	.
32F\LLL	.	.	.	16.b-/L	.	8r	.
32D\	.	.	.	.	.	.	.
32E-\	.	.	.	.	.	.	.
32F\JJJ	.	.	.	32a-/JJk	.	.	.
32G\LLL	.	4r	.	8c/L	.	4r	.
32GG\	.	.	.	.	.	.	.
32BBn\	.	.	.	.	.	.	.
32D\	.	.	.	.	.	.	.
32G\	.	.	.	8Bn/J)	.	.	.
32A-\	.	.	.	.	.	.	.
32G\	.	.	.	.	.	.	.
32F\JJJ	.	.	.	.	.	.	.
=61	=61	=61	=61	=61	=61	=61	=61
32E-/LLL	.	4r	.	4c/	.	(8gg\L	.
32G/	.	.	.	.	.	.	.
32E-/	.	.	.	.	.	.	.
32C/JJJ	.	.	.	.	.	.	.
32BBn/LLL	.	.	.	.	.	16.ggg\L	.
32Dn/	.	.	.	.	.	.	.
32BB/	.	.	.	.	.	.	.
32GG/JJJ	.	.	.	.	.	32dddn\JJk	.
32C/LLL	.	(8b-\L	.	4r	.	8fff\L	.
32CC/	.	.	.	.	.	.	.
32EEn/	.	.	.	.	.	.	.
32GG/JJJ	.	.	.	.	.	.	.
32C/LLL	.	16.dd-\L	.	.	.	8eeen\J)	.
32GG/	.	.	.	.	.	.	.
32EE/	.	.	.	.	.	.	.
32CC/JJJ	.	32g\JJk	.	.	.	.	.
=62	=62	=62	=62	=62	=62	=62	=62
32FF/LLL	.	8b-\L	.	(8ee-\L	.	4r	.
32FF/	.	.	.	.	.	.	.
32AAn/	.	.	.	.	.	.	.
32C/JJJ	.	.	.	.	.	.	.
32F/LLL	.	8an\J)	.	16.gg-\L	.	.	.
32C/	.	.	.	.	.	.	.
32AA/	.	.	.	.	.	.	.
32FF/JJJ	.	.	.	32cc\JJk	.	.	.
32BB-\LLL	.	4r	.	16ee-\LK	.	16r	.
32Dn\	.	.	.	.	.	.	.
32F\	.	.	.	8.ddn\J)	.	(8aa-\L	.
32B-\JJJ	.	.	.	.	.	.	.
32Bn\LLL	.	.	.	.	.	.	.
32G\	.	.	.	.	.	.	.
32D\	.	.	.	.	.	16gg\Jk	.
32BBn\JJJ	.	.	.	.	.	.	.
=63	=63	=63	=63	=63	=63	=63	=63
32C/LLL	.	4r	.	16r	.	16ff\LK	.
32CC/	.	.	.	.	.	.	.
32EE-/	.	.	.	8b-/L	.	8.ee-\J)	.
32GG/JJJ	.	.	.	.	.	.	.
32C/LLL	.	.	.	.	.	.	.
32AA-/	.	.	.	.	.	.	.
32EE-/	.	.	.	16a-/Jk	.	.	.
32CC/JJJ	.	.	.	.	.	.	.
32DD-/LLL	.	16r	.	16g-/LK	.	4r	.
32FF/	.	.	.	.	.	.	.
32AA-/	.	(8c/L	.	8.f/J	.	.	.
32D-/JJJ	.	.	.	.	.	.	.
32Dn/LLL	.	.	.	.	.	.	.
32BB-/	.	.	.	.	.	.	.
32FF/	.	16B-/Jk	.	.	.	.	.
32DDn/JJJ	.	.	.	.	.	.	.
=64	=64	=64	=64	=64	=64	=64	=64
32EE-/LLL	.	16A-/LK	.	16r	.	16r	.
32GG/	.	.	.	.	.	.	.
32BB-/	.	8G/)	.	(8d-/L	.	(8dd-\L	.
32E-/JJJ	.	.	.	.	.	.	.
32En/LLL	.	.	.	.	.	.	.
32C/	.	.	.	.	.	.	.
32GG/	.	([16C/Jk	.	16c/Jk	.	16cc\Jk	.
32EEn/JJJ	.	.	.	.	.	.	.
32FF/LLL	.	16C/LL]	.	16B-/LL	.	16b-\LL	.
32AA-/	.	.	.	.	.	.	.
32C/	.	16D-/)	.	16A-/)	.	16a-\)	.
32F/JJJ	.	.	.	.	.	.	.
32GG/LLL	.	(16B-/	.	(16f/	.	(16ff\	.
32BB-/	.	.	.	.	.	.	.
32E-/	.	[16E-/JJ	.	16e-/JJ	.	16ee-\JJ	.
32G/JJJ	.	.	.	.	.	.	.
=65	=65	=65	=65	=65	=65	=65	=65
32AA-\LLL	.	16E-/LL]	.	16d-/LL	.	16dd-\LL	.
32C\	.	.	.	.	.	.	.
32E-\	.	16F/)	.	16c/)	.	16cc\)	.
32A-\JJJ	.	.	.	.	.	.	.
32AAn\LLL	.	(16c/	.	(16g-/	.	(16gg-\	.
32C\	.	.	.	.	.	.	.
32F\	.	[16F/JJ	.	16f/JJ	.	16ff\JJ	.
32An\JJJ	.	.	.	.	.	.	.
32BB-\LLL	.	16F\LK]	.	16e-/LL	.	16ee-\LL	.
32D-\	.	.	.	.	.	.	.
32F\	.	8G-\)	.	16d-/)	.	16dd-\)	.
32B-\JJJ	.	.	.	.	.	.	.
32C\LLL	.	.	.	(16b-/	.	(16bb-\	.
32E-\	.	.	.	.	.	.	.
32A\	.	16g-\Jk	.	[16an/JJ)	.	[16aan\JJ)	.
32c\JJJ	.	.	.	.	.	.	.
=66	=66	=66	=66	=66	=66	=66	=66
32D-\LLL	.	16f/LK	.	16a\LK]	.	16aa\LK]	.
32F\	.	.	.	.	.	.	.
32B-\	.	8F/	.	8b-\	.	8bb-\	.
32d-\JJJ	.	.	.	.	.	.	.
32C\LLL	.	.	.	.	.	.	.
32F\	.	.	.	.	.	.	.
32A-\	.	[16F/Jk	.	[16cc\Jk	.	[16ccc\Jk	.
32c\JJJ	.	.	.	.	.	.	.
32BB-\LLL	.	16F/LK]	.	(16cc\LL]	.	16ccc\LK]	.
32B-\	.	.	.	.	.	.	.
32AA-\	.	8B-/	.	16dd-\	.	8ddd-\	.
32A-\JJJ	.	.	.	.	.	.	.
32GG\LLL	.	.	.	16b-\	.	.	.
32G\	.	.	.	.	.	.	.
32FF\	.	[16B-/Jk	.	16a-\JJ)	.	[16ddd-\Jk	.
32F\JJJ	.	.	.	.	.	.	.
=67	=67	=67	=67	=67	=67	=67	=67
32EEn/LLL	f	16B-\LK]	.	(16g/LL	f	16ddd-\LK]	f
32En/	.	.	.	.	.	.	.
32DD-/	.	8g\	.	16b-/	.	8eeen\	.
32D-/	.	.	.	.	.	.	.
32CC/	.	.	.	16cc/	.	.	.
32C/J	.	.	.	.	.	.	.
16BB-/JJ	.	16g\Jk	.	16dd-/JJ)	.	[16eee\Jk	.
16AA-\LL 16B-\	.	4c\	.	(16cc/LL	.	16eee\LK]	.
16GG\ 16A-\	.	.	.	16b-/	.	8fff\	.
16FF\ 16G\	.	.	.	16a-/	.	.	.
32FF\L 32F\	.	.	.	16c/JJ) 16f/	.	16a-\Jk	.
32AA-\JJJ	.	.	.	.	.	.	.
=68	=68	=68	=68	=68	=68	=68	=68
16CC/	p	32C/LLL	.	16c/ 16en/	.	8.g/	p
.	.	32En/	.	.	.	.	.
16r	.	32G/	.	16r	.	.	.
.	.	32c/JJJ	.	.	.	.	.
8en\L	.	32C/LLL	.	8g/L	.	.	.
.	.	32F/	.	.	.	.	.
.	.	.	.	.	.	ccq/LL	.
.	.	.	.	.	.	ee-q/JJ	.
.	.	32A-/	.	.	.	32.dd-\LLL	.
.	.	32c/JJJ	.	.	.	.	.
.	.	.	.	.	.	64cc\JJJk	.
8e\	.	32C/LLL	.	(8g/	.	16cc\	.
.	.	32F/	.	.	.	.	.
.	.	.	.	.	.	ccq/LL	.
.	.	.	.	.	.	ee-q/JJ	.
.	.	32A-/	.	.	.	32.dd-\LLL	.
.	.	32c/JJJ	.	.	.	.	.
.	.	.	.	.	.	64cc\JJJk	.
8f\J	.	32C/LLL	.	8a-/J	.	16cc\LL	.
.	.	32G/	.	.	.	.	.
.	.	.	.	.	.	ccq/LL	.
.	.	.	.	.	.	ee-q/JJ	.
.	.	32A-/	.	.	.	32.dd-/L	.
.	.	32c/JJJ	.	.	.	.	.
.	.	.	.	.	.	64cc/JJJk	.
=69	=69	=69	=69	=69	=69	=69	=69
8g\	.	32C/LLL	.	8b-/)	.	16cc\	.
.	.	32G/	.	.	.	.	.
.	.	32B-/	.	.	.	16r	.
.	.	32c/JJJ	.	.	.	.	.
16r	.	8r	.	8B-/L 8g/	.	32c/LLL	.
.	.	.	.	.	.	32g/	.
CCq/LL	.	.	.	.	.	.	.
EE-q/JJ	.	.	.	.	.	.	.
32.DD-/LLL	.	.	.	.	.	32b-/	.
.	.	.	.	.	.	32cc/JJJ	.
64CC/JJJk	.	.	.	.	.	.	.
16CC/	.	8r	.	(8B-/ 8g/	.	32c/LLL	.
.	.	.	.	.	.	32g/	.
CCq/LL	.	.	.	.	.	.	.
EE-q/JJ	.	.	.	.	.	.	.
32.DD-/LLL	.	.	.	.	.	32b-/	.
.	.	.	.	.	.	32cc/JJJ	.
64CC/JJJk	.	.	.	.	.	.	.
16CC/LL	.	(8F/	.	8A-/J 8f/	.	32c/LLL	.
.	.	.	.	.	.	32f/	.
CCq/LL	.	.	.	.	.	.	.
EE-q/JJ	.	.	.	.	.	.	.
32.DD-/L	.	.	.	.	.	32a-/	.
.	.	.	.	.	.	32cc/JJJ	.
64CC/JJJk	.	.	.	.	.	.	.
=70	=70	=70	=70	=70	=70	=70	=70
8CC/	.	8.C/)	.	8G/) 8en/	.	32c/LLL	.
.	.	.	.	.	.	32en/	.
.	.	.	.	.	.	32g/	.
.	.	.	.	.	.	32cc/JJJ	.
8r	.	.	.	8r	.	32c/LLL	.
.	.	.	.	.	.	32e/	.
.	.	Cq/LL	.	.	.	.	.
.	.	E-q/JJ	.	.	.	.	.
.	.	32.D-/LLL	.	.	.	32g/	.
.	.	.	.	.	.	32cc/JJJ	.
.	.	64C/JJJk	.	.	.	.	.
4r	.	16C/	.	4r	.	32c/LLL	.
.	.	.	.	.	.	32e/	.
.	.	Cq/LL	.	.	.	.	.
.	.	E-q/JJ	.	.	.	.	.
.	.	32.D-/LLL	.	.	.	32g/	.
.	.	.	.	.	.	32cc/JJJ	.
.	.	64C/JJJk	.	.	.	.	.
.	.	16C/LL	.	.	.	32c/LLL	.
.	.	.	.	.	.	32e/	.
.	.	Cq/LL	.	.	.	.	.
.	.	E-q/JJ	.	.	.	.	.
.	.	32.D-/L	.	.	.	32g/	.
.	.	.	.	.	.	32cc/JJJ	.
.	.	64C/JJJk	.	.	.	.	.
=71	=71	=71	=71	=71	=71	=71	=71
2r	.	[8C/	.	8r	.	32c/LLL	.
.	.	.	.	.	.	32en/	.
.	.	.	.	.	.	32g/	.
.	.	.	.	.	.	32cc/JJJ	.
.	.	4.C/]	.	32An/LLL	.	8r	.
.	.	.	.	32c/	.	.	.
.	.	.	.	32e-/	.	.	.
.	.	.	.	32g-/JJJ	.	.	.
.	.	.	.	32A/LLL	.	4r	.
.	.	.	.	32c/	.	.	.
.	.	.	.	32e-/	.	.	.
.	.	.	.	32g-/JJJ	.	.	.
.	.	.	.	32A-/LLL	.	.	.
.	.	.	.	32c/	.	.	.
.	.	.	.	32e-/	.	.	.
.	.	.	.	32g-/JJJ	.	.	.
=72	=72	=72	=72	=72	=72	=72	=72
(4.F\	pp	2D-/	.	32A-/LLL	.	8.a-/L	.
.	.	.	.	32c/	.	.	.
.	.	.	.	32d-/	.	.	.
.	.	.	.	32f/JJJ	.	.	.
.	.	.	.	32A-/LLL	.	.	.
.	.	.	.	32d-/	.	.	.
.	.	.	.	.	.	dd-q/LL	.
.	.	.	.	.	.	ffq/JJ	.
.	.	.	.	32f/	.	32.ee-/LL	.
.	.	.	.	32a-/JJJ	.	.	.
.	.	.	.	.	.	64dd-/JJJk	.
.	.	.	.	32A-/LLL	.	16dd-\LL	.
.	.	.	.	32d-/	.	.	.
.	.	.	.	.	.	dd-q/LL	.
.	.	.	.	.	.	ffq/JJ	.
.	.	.	.	32f/	.	32.ee-/L	.
.	.	.	.	32a-/JJJ	.	.	.
.	.	.	.	.	.	64dd-/JJJk	.
8G-\)	.	.	.	32B-/LLL	.	16dd-\LL	.
.	.	.	.	32d-/	.	.	.
.	.	.	.	.	.	dd-q/LL	.
.	.	.	.	.	.	ffq/JJ	.
.	.	.	.	32g-/	.	32.ee-/L	.
.	.	.	.	32b-/JJJ	.	.	.
.	.	.	.	.	.	64dd-/JJJk	.
=73	=73	=73	=73	=73	=73	=73	=73
(2D-\	.	(48F/LLL	.	8a-/	.	[4dd-\	.
.	.	48A-/	.	.	.	.	.
.	.	48F/	.	.	.	.	.
.	.	48A-/	.	.	.	.	.
.	.	48F/	.	.	.	.	.
.	.	48A-/JJJ	.	.	.	.	.
.	.	48F/LLL	.	8r	.	.	.
.	.	48A-/	.	.	.	.	.
.	.	48F/	.	.	.	.	.
.	.	48A-/	.	.	.	.	.
.	.	48F/	.	.	.	.	.
.	.	48A-/JJJ)	.	.	.	.	.
.	.	(48F/LLL	.	4r	.	(16dd-\LL]	.
.	.	48A-/	.	.	.	.	.
.	.	48F/	.	.	.	.	.
.	.	48A-/	.	.	.	16ff\	.
.	.	48F/	.	.	.	.	.
.	.	48A-/JJJ	.	.	.	.	.
.	.	48F/LLL	.	.	.	16dd-\	.
.	.	48A-/	.	.	.	.	.
.	.	48F/	.	.	.	.	.
.	.	48A-/	.	.	.	16ff\JJ)	.
.	.	48F/	.	.	.	.	.
.	.	48A-/JJJ)	.	.	.	.	.
=74	=74	=74	=74	=74	=74	=74	=74
4C/	.	(48E-/LLL	.	8A-/ 8g-/	.	([4aa-\	.
.	.	48A-/	.	.	.	.	.
.	.	48E-/	.	.	.	.	.
.	.	48A-/	.	.	.	.	.
.	.	48E-/	.	.	.	.	.
.	.	48A-/JJJ	.	.	.	.	.
.	.	48E-/LLL	.	8r	.	.	.
.	.	48A-/	.	.	.	.	.
.	.	48E-/	.	.	.	.	.
.	.	48A-/	.	.	.	.	.
.	.	48E-/	.	.	.	.	.
.	.	48A-/JJJ)	.	.	.	.	.
4AA-/	.	(48C/LLL	.	8c/	.	16aa-\LL]	.
.	.	48E-/	.	.	.	.	.
.	.	48C/	.	.	.	.	.
.	.	48E-/	.	.	.	16gg-\	.
.	.	48C/	.	.	.	.	.
.	.	48E-/JJJ	.	.	.	.	.
.	.	48C/LLL	.	8r	.	16ee-\	.
.	.	48F/	.	.	.	.	.
.	.	48C/	.	.	.	.	.
.	.	48F/	.	.	.	16ff\JJ)	.
.	.	48C/	.	.	.	.	.
.	.	48F/JJJ)	.	.	.	.	.
=75	=75	=75	=75	=75	=75	=75	=75
4BB-/	.	(48F/LLL	.	8d-/ 8f/	.	[4dd-\	.
.	.	48D-/	.	.	.	.	.
.	.	48F/	.	.	.	.	.
.	.	48D-/	.	.	.	.	.
.	.	48F/	.	.	.	.	.
.	.	48D-/	.	.	.	.	.
.	.	48F/	.	8r	.	.	.
.	.	48D-/	.	.	.	.	.
.	.	48F/	.	.	.	.	.
.	.	48D-/	.	.	.	.	.
.	.	48F/	.	.	.	.	.
.	.	48D-/JJJ)	.	.	.	.	.
4GG-/	.	(48E-/LLL	.	8d-/ 8e-/	.	16dd-\LL]	.
.	.	48D-/	.	.	.	.	.
.	.	48E-/	.	.	.	.	.
.	.	48D-/	.	.	.	(16b-\	.
.	.	48E-/	.	.	.	.	.
.	.	48D-/	.	.	.	.	.
.	.	48E-/	.	8r	.	16.cc\	.
.	.	48D-/	.	.	.	.	.
.	.	48E-/	.	.	.	.	.
.	.	48D-/	.	.	.	.	.
.	.	48E-/	.	.	.	.	.
.	.	.	.	.	.	32dd-\JJk)	.
.	.	48D-/JJJ)	.	.	.	.	.
=76	=76	=76	=76	=76	=76	=76	=76
2AA-/)	.	(48F/LLL	.	8d-/ 8f/	.	(16dd-\LK	.
.	.	48D-/	.	.	.	.	.
.	.	48F/	.	.	.	.	.
.	.	48D-/	.	.	.	8a-\J)	.
.	.	48F/	.	.	.	.	.
.	.	48D-/	.	.	.	.	.
.	.	48F/	.	8r	.	.	.
.	.	48D-/	.	.	.	.	.
.	.	48F/	.	.	.	.	.
.	.	.	.	.	.	a-q/LL	.
.	.	.	.	.	.	ccq/JJ	.
.	.	48D-/	.	.	.	32.b-/LLL	.
.	.	48F/	.	.	.	.	.
.	.	48D-/JJJ)	.	.	.	.	.
.	.	.	.	.	.	64a-/JJJk	.
.	.	(48C/LLL	.	8r	.	16a-/LL	.
.	.	48G-/	.	.	.	.	.
.	.	48C/	.	.	.	.	.
.	.	.	.	.	.	a-q/LL	.
.	.	.	.	.	.	ccq/JJ	.
.	.	48G-/	.	.	.	32.b-/L	.
.	.	48C/	.	.	.	.	.
.	.	48G-/	.	.	.	.	.
.	.	.	.	.	.	64a-/JJJk	.
.	.	48C/	.	8ee-\	.	16a-/LL	.
.	.	48G-/	.	.	.	.	.
.	.	48C/	.	.	.	.	.
.	.	.	.	.	.	a-q/LL	.
.	.	.	.	.	.	ccq/JJ	.
.	.	48G-/	.	.	.	32.b-/L	.
.	.	48C/	.	.	.	.	.
.	.	48G-/JJJ)	.	.	.	.	.
.	.	.	.	.	.	64a-/JJJk	.
=77	=77	=77	=77	=77	=77	=77	=77
[4D-\	.	16F/	.	(48dd-\LLL	.	(8a-/	.
.	.	.	.	48a-\	.	.	.
.	.	.	.	48dd-\	.	.	.
.	.	(16f\LL	.	48a-\	.	.	.
.	.	.	.	48dd-\	.	.	.
.	.	.	.	48a-\	.	.	.
.	.	16d-\	.	48dd-\	.	4ff\)	.
.	.	.	.	48a-\	.	.	.
.	.	.	.	48dd-\	.	.	.
.	.	16f\JJ)	.	48a-\	.	.	.
.	.	.	.	48dd-\	.	.	.
.	.	.	.	48a-\JJJ)	.	.	.
(16D-\LL]	.	[4a-\	.	(48dd-\LLL	.	.	.
.	.	.	.	48a-\	.	.	.
.	.	.	.	48dd-\	.	.	.
16F\	.	.	.	48a-\	.	.	.
.	.	.	.	48dd-\	.	.	.
.	.	.	.	48a-\	.	.	.
16D-\	.	.	.	48dd-\	.	(32ff\LLL	.
.	.	.	.	48a-\	.	.	.
.	.	.	.	.	.	ggq/LL	.
.	.	.	.	.	.	ffq/	.
.	.	.	.	.	.	eenq/JJ	.
.	.	.	.	.	.	32ff\	.
.	.	.	.	48dd-\	.	.	.
16F\JJ)	.	.	.	48a-\	.	32aa-\	.
.	.	.	.	48dd-\	.	.	.
.	.	.	.	.	.	32gg-\JJJ)	.
.	.	.	.	48a-\JJJ)	.	.	.
=78	=78	=78	=78	=78	=78	=78	=78
(4A-\	.	16a-\LL]	.	(48cc\LLL	.	(8ff\L	.
.	.	.	.	48a-\	.	.	.
.	.	.	.	48cc\	.	.	.
.	.	(16c\	.	48a-\	.	.	.
.	.	.	.	48cc\	.	.	.
.	.	.	.	48a-\JJJ	.	.	.
.	.	16A-\	.	48cc\LLL	.	[8ee-\J)	.
.	.	.	.	48a-\	.	.	.
.	.	.	.	48cc\	.	.	.
.	.	16c\JJ)	.	48a-\	.	.	.
.	.	.	.	48cc\	.	.	.
.	.	.	.	48a-\JJJ)	.	.	.
16E-\LL	.	(4e-\	.	(48b-/LLL	.	(8ee-\L]	.
.	.	.	.	48a-/	.	.	.
.	.	.	.	48b-/	.	.	.
16G-\	.	.	.	48g-/	.	.	.
.	.	.	.	48b-/	.	.	.
.	.	.	.	48g-/JJJ)	.	.	.
16E-\	.	.	.	(48ee-\LLL	.	32gg-\LL	.
.	.	.	.	48b-\	.	.	.
.	.	.	.	.	.	aa-q/LL	.
.	.	.	.	.	.	gg-q/	.
.	.	.	.	.	.	ffq/JJ	.
.	.	.	.	.	.	32gg-\	.
.	.	.	.	48ee-\	.	.	.
16G-\JJ)	.	.	.	48b-\	.	32bb-\	.
.	.	.	.	48ee-\	.	.	.
.	.	.	.	.	.	32aa-\JJJ)	.
.	.	.	.	48b-\JJJ)	.	.	.
=79	=79	=79	=79	=79	=79	=79	=79
(4B-\	.	16B-/LL)	.	(48dd-\LLL	.	(8gg-\L	.
.	.	.	.	48b-\	.	.	.
.	.	.	.	48dd-\	.	.	.
.	.	(16d-/	.	48b-\	.	.	.
.	.	.	.	48dd-\	.	.	.
.	.	.	.	48b-\JJJ	.	.	.
.	.	16B-/	.	48dd-\LLL	.	[8ff\J)	.
.	.	.	.	48b-\	.	.	.
.	.	.	.	48dd-\	.	.	.
.	.	16d-/JJ	.	48b-\	.	.	.
.	.	.	.	48dd-\	.	.	.
.	.	.	.	48b-\JJJ)	.	.	.
16F/LL	.	16f/LL	.	(48cc\LLL	.	(8ff\L]	.
.	.	.	.	48a-\	.	.	.
.	.	.	.	48cc\	.	.	.
16AA-/	.	16A-/	.	48a-\	.	.	.
.	.	.	.	48cc\	.	.	.
.	.	.	.	48a-\JJJ)	.	.	.
16FF/	.	16F/	.	(48ff\LLL	.	32aa-\LL	.
.	.	.	.	48cc\	.	.	.
.	.	.	.	.	.	bb-q/LL	.
.	.	.	.	.	.	aa-q/	.
.	.	.	.	.	.	ggnq/JJ	.
.	.	.	.	.	.	32aa-\	.
.	.	.	.	48ff\	.	.	.
16AA-/JJ)	.	16A-/JJ)	.	48cc\	.	32ccc\	.
.	.	.	.	48ff\	.	.	.
.	.	.	.	.	.	32bb-\JJJ)	.
.	.	.	.	48cc\JJJ)	.	.	.
=80	=80	=80	=80	=80	=80	=80	=80
(4C/	.	(4c\	.	(48ff\LLL	.	(8aa-\L	.
.	.	.	.	48cc\	.	.	.
.	.	.	.	48ff\	.	.	.
.	.	.	.	48cc\	.	.	.
.	.	.	.	48ff\	.	.	.
.	.	.	.	48cc\JJJ)	.	.	.
.	.	.	.	(48een\LLL	.	8gg\J	.
.	.	.	.	48cc\	.	.	.
.	.	.	.	48ee\	.	.	.
.	.	.	.	48cc\	.	.	.
.	.	.	.	48ee\	.	.	.
.	.	.	.	48cc\JJJ)	.	.	.
8AA-/L	.	8A-/L	.	(48ff\LLL	.	8aa-\L	.
.	.	.	.	48cc\	.	.	.
.	.	.	.	48ff\	.	.	.
.	.	.	.	48cc\	.	.	.
.	.	.	.	48ff\	.	.	.
.	.	.	.	48cc\JJJ)	.	.	.
8FF/J)	.	8F/J)	.	(48a-/LLL	.	8bbn\J)	.
.	.	.	.	48f/	.	.	.
.	.	.	.	48a-/	.	.	.
.	.	.	.	48f/	.	.	.
.	.	.	.	48a-/	.	.	.
.	.	.	.	48f/JJJ)	.	.	.
=81	=81	=81	=81	=81	=81	=81	=81
(8.CC/L	p	(8.C/L	.	(48en/LLL	p	(8.ccc\L	p
.	.	.	.	48g/	.	.	.
.	.	.	.	48e/	.	.	.
.	.	.	.	48g/	.	.	.
.	.	.	.	48e/	.	.	.
.	.	.	.	48g/JJJ	.	.	.
.	.	.	.	48e/LLL	.	.	.
.	.	.	.	48g/	.	.	.
.	.	.	.	48e/	.	.	.
16FF/Jk	.	16F/Jk	.	48a-/	.	16bbn\Jk	.
.	.	.	.	48f/	.	.	.
.	.	.	.	48a-/JJJ)	.	.	.
8CC/L	.	8C/L	.	(48e/LLL	.	8ccc\L	.
.	.	.	.	48g/	.	.	.
.	.	.	.	48e/	.	.	.
.	.	.	.	48g/	.	.	.
.	.	.	.	48e/	.	.	.
.	.	.	.	48g/JJJ)	.	.	.
8GG/J)	.	8G/J)	.	(48bn/LLL	.	8dddn\J)	.
.	.	.	.	48f/	p	.	.
.	.	.	.	48b/	.	.	.
.	.	.	.	48f/	.	.	.
.	.	.	.	48b/	.	.	.
.	.	.	.	48f/JJJ)	.	.	.
=82	=82	=82	=82	=82	=82	=82	=82
(8.CC/L	p	(8.C/L	p	(48en/LLL	.	(8.ccc\L	p
.	.	.	.	48g/	.	.	.
.	.	.	.	48e/	.	.	.
.	.	.	.	48g/	.	.	.
.	.	.	.	48e/	.	.	.
.	.	.	.	48g/JJJ	.	.	.
.	.	.	.	48e/LLL	.	.	.
.	.	.	.	48g/	.	.	.
.	.	.	.	48e/	.	.	.
16FF/Jk	.	16F/Jk	.	48a-/	.	16bbn\Jk	.
.	.	.	.	48f/	.	.	.
.	.	.	.	48a-/JJJ)	.	.	.
8CC/L	.	8C/L	.	(48e/LLL	.	8ccc\L	.
.	.	.	.	48g/	.	.	.
.	.	.	.	48e/	.	.	.
.	.	.	.	48g/	.	.	.
.	.	.	.	48e/	.	.	.
.	.	.	.	48g/JJJ)	.	.	.
8GG/J)	.	8G/J)	.	(48bn/LLL	.	8dddn\J)	.
.	.	.	.	48f/	.	.	.
.	.	.	.	48b/	p	.	.
.	.	.	.	48f/	.	.	.
.	.	.	.	48b/	.	.	.
.	.	.	.	48f/JJJ)	.	.	.
=83	=83	=83	=83	=83	=83	=83	=83
8CC/	p	16C/	p	(48en/LLL	.	(48ccc\LLL	p
.	.	.	.	48g/	.	48gg\	.
.	.	.	.	48e/	.	48ccc\JJJ)	.
.	.	E-q/	.	.	.	.	.
.	.	32.D-'/LLL	.	48b-/	.	16r	.
.	.	.	.	48g/	.	.	.
.	.	.	.	48b-/JJJ)	.	.	.
.	.	64C'/JJJk	.	.	.	.	.
8r	.	16C/	.	(48g/LLL	.	(48bb-\LLL	.
.	.	.	.	48b-/	.	48gg\	.
.	.	.	.	48g/	.	48bb-\JJJ)	.
.	.	E-q/	.	.	.	.	.
.	.	32.D-'/LLL	.	48b-/	.	16r	.
.	.	.	.	48g/	.	.	.
.	.	.	.	48b-/JJJ)	.	.	.
.	.	64C'/JJJk	.	.	.	.	.
4r	.	16C/	.	(48g/LLL	.	(48gg\LLL	.
.	.	.	.	48b-/	.	48ee-\	.
.	.	.	.	48g/	.	48gg\JJJ)	.
.	.	E-q/	.	.	.	.	.
.	.	32.D-'/LLL	.	48b-/	.	16r	.
.	.	.	.	48g/	.	.	.
.	.	.	.	48b-/JJJ)	.	.	.
.	.	64C'/JJJk	.	.	.	.	.
.	.	16C/	.	(48g/LLL	.	(48ee-\LLL	.
.	.	.	.	48b-/	.	48b-\	.
.	.	.	.	48g/	.	48ee-\JJJ)	.
.	.	E-q/	.	.	.	.	.
.	.	32.D-'/LLL	.	48b-/	.	16r	.
.	.	.	.	48g/	.	.	.
.	.	.	.	48b-/JJJ)	.	.	.
.	.	64C'/JJJk	.	.	.	.	.
=84	=84	=84	=84	=84	=84	=84	=84
2r	pp	32C/LLL	.	(48g/LLL	pp	16r	p
.	.	.	.	48b-/	.	.	.
.	.	32C/	.	.	.	.	.
.	.	.	.	48g/JJJ)	.	.	.
.	.	32C/	.	16r	.	(48dd-\LLL	pp
.	.	.	.	.	.	48b-\	.
.	.	32C/JJJ	.	.	.	.	.
.	.	.	.	.	.	48dd-\JJJ)	.
.	.	32C/LLL	.	(48g/LLL	.	16r	.
.	.	.	.	48b-/	.	.	.
.	.	32C/	.	.	.	.	.
.	.	.	.	48g/JJJ)	.	.	.
.	.	32C/	.	16r	.	(48dd-\LLL	.
.	.	.	.	.	.	48b-\	.
.	.	32C/JJJ	.	.	.	.	.
.	.	.	.	.	.	48dd-\JJJ)	.
.	.	4C/	.	(48g/LLL	.	16r	.
.	.	.	.	48b-/	.	.	.
.	.	.	.	48g/JJJ)	.	.	.
.	.	.	.	16r	.	(48dd-\LLL	.
.	.	.	.	.	.	48b-\	.
.	.	.	.	.	.	48dd-\JJJ)	.
.	.	.	.	48r	.	(48b-\LLL	.
.	.	.	.	(48en/LLL	.	48cc\	.
.	.	.	.	48g/	.	48bn\	.
.	.	.	.	48e/	.	48cc\	.
.	.	.	.	48g/	.	48b\	.
.	.	.	.	48e/JJJ)	.	48cc\JJJ)	.
=85	=85	=85	=85	=85	=85	=85	=85
8FF/L	.	2C/	.	(48a-/LLL	.	(8cc\L	.
.	.	.	.	48f/	.	.	.
.	.	.	.	48a-/	.	.	.
.	.	.	.	48f/	.	.	.
.	.	.	.	48a-/	.	.	.
.	.	.	.	48f/JJJ)	.	.	.
8AA-/J	.	.	.	(48f/LLL	.	16.ee-\L	.
.	.	.	.	48c/	.	.	.
.	.	.	.	48f/	.	.	.
.	.	.	.	48c/	.	.	.
.	.	.	.	48f/	.	.	.
.	.	.	.	.	.	32dd-\JJk	.
.	.	.	.	48c/JJJ)	.	.	.
8GG/L	.	.	.	(48c/LLL	.	8f/L	.
.	.	.	.	48B-/	.	.	.
.	.	.	.	48c/	.	.	.
.	.	.	.	48B-/	.	.	.
.	.	.	.	48c/	.	.	.
.	.	.	.	48B-/JJJ)	.	.	.
8BB-/J	.	.	.	(48c/LLL	.	8en/J)	.
.	.	.	.	48G/	.	.	.
.	.	.	.	48c/	.	.	.
.	.	.	.	48G/	.	.	.
.	.	.	.	48c/	.	.	.
.	.	.	.	48G/JJJ)	.	.	.
=86	=86	=86	=86	=86	=86	=86	=86
16AA-/LL	.	2C/	.	(48c/LLL	.	(8f/L	.
.	.	.	.	48A-/	.	.	.
.	.	.	.	48c/	.	.	.
16FF/	.	.	.	48a-/	.	.	.
.	.	.	.	48c/	.	.	.
.	.	.	.	48a-/JJJ)	.	.	.
.	.	.	.	.	.	gq/LL	.
.	.	.	.	.	.	fq/	.
.	.	.	.	.	.	enq/	.
.	.	.	.	.	.	fq/JJ	.
16EEn/	.	.	.	(48g/LLL	.	16.cc/L	.
.	.	.	.	48c/	.	.	.
.	.	.	.	48g/	.	.	.
16CC/JJ	.	.	.	48c/	.	.	.
.	.	.	.	48g/	.	.	.
.	.	.	.	.	.	32g/JJk)	.
.	.	.	.	48c/JJJ)	.	.	.
8FF/	.	.	.	(48g/LLL	.	(8b-/L	.
.	.	.	.	48c/	.	.	.
.	.	.	.	48g/	.	.	.
.	.	.	.	48en/	.	.	.
.	.	.	.	48c/	.	.	.
.	.	.	.	48e/JJJ)	.	.	.
8r	.	.	.	(48f/LLL	.	8a-/J	.
.	.	.	.	48c/	.	.	.
.	.	.	.	48f/	.	.	.
.	.	.	.	48c/	.	.	.
.	.	.	.	48f/	.	.	.
.	.	.	.	48c/JJJ)	.	.	.
=87	=87	=87	=87	=87	=87	=87	=87
8FF/L	.	2C/	.	(48a-/LLL	.	(8cc\L)	.
.	.	.	.	48c/	.	.	.
.	.	.	.	48a-/	.	.	.
.	.	.	.	48cc/	.	.	.
.	.	.	.	48a-/	.	.	.
.	.	.	.	48cc/JJJ)	.	.	.
16r	.	.	.	(48a-\LLL	.	32ff\LL	.
.	.	.	.	48cc\	.	.	.
.	.	.	.	.	.	32aa-\	.
.	.	.	.	48a-\	.	.	.
16AA-/Jk	.	.	.	48cc\	.	32ccc\	.
.	.	.	.	48a-\	.	.	.
.	.	.	.	.	.	32fff\JJJ)	.
.	.	.	.	48cc\JJJ)	.	.	.
8GG/L	.	.	.	(48b-\LLL	.	(8fff\L	.
.	.	.	.	48cc\	.	.	.
.	.	.	.	48b-\	.	.	.
.	.	.	.	48cc\	.	.	.
.	.	.	.	48b-\	.	.	.
.	.	.	.	48cc\JJJ)	.	.	.
16r	.	.	.	(48b-\LLL	.	16eeen\L	.
.	.	.	.	48cc\	.	.	.
.	.	.	.	48b-\	.	.	.
*	*	*	*	*	*	*^	*
16FF/Jk	.	.	.	48a-\	.	16fff\JJ	48fff\	.
.	.	.	.	48cc\	.	.	48ggg\	.
.	.	.	.	48a-\JJJ)	.	.	48fff\	.
*	*	*	*	*	*	*v	*v	*
=88	=88	=88	=88	=88	=88	=88	=88
.	.	.	.	.	.	eeeq/LL)	.
.	.	.	.	.	.	fffq/JJ	.
16EEn/LL	.	2C/	.	(48g/LLL	.	(16ggg\LL	.
.	.	.	.	48cc/	.	.	.
.	.	.	.	48g/	.	.	.
16CC/	.	.	.	48en/	.	16cc\)	.
.	.	.	.	48g/	.	.	.
.	.	.	.	48e/JJJ)	.	.	.
16FF/	.	.	.	(48a-/LLL	.	(16cc'\	.
.	.	.	.	48f/	.	.	.
.	.	.	.	48a-/	.	.	.
16AA-/JJ	.	.	.	48f/	.	16bn'\JJ)	.
.	.	.	.	48a-/	.	.	.
.	.	.	.	48f/JJJ)	.	.	.
8C/	.	.	.	(48a-/LLL	.	(8b\L	.
.	.	.	.	48f/	.	.	.
.	.	.	.	48a-/	.	.	.
.	.	.	.	48f/	.	.	.
.	.	.	.	48a-/	.	.	.
.	.	.	.	48f/JJJ)	.	.	.
8r	.	.	.	(48e/LLL	.	8cc\J)	.
.	.	.	.	48g/	.	.	.
.	.	.	.	48e/	.	.	.
.	.	.	.	48g/	.	.	.
.	.	.	.	48e/	.	.	.
.	.	.	.	48g/JJJ)	.	.	.
=89	=89	=89	=89	=89	=89	=89	=89
8BB-/L	.	2E-/	.	(48g/LLL	.	(8dd-\L	.
.	.	.	.	48e-/	.	.	.
.	.	.	.	48g/	.	.	.
.	.	.	.	48e-/	.	.	.
.	.	.	.	48g/	.	.	.
.	.	.	.	48e-/JJJ)	.	.	.
8D-/	.	.	.	(48g/LLL	.	16.b-\L	.
.	.	.	.	48e-/	.	.	.
.	.	.	.	48g/	.	.	.
.	.	.	.	48e-/	.	.	.
.	.	.	.	48g/	.	.	.
.	.	.	.	.	.	32ee-\JJk)	.
.	.	.	.	48e-/JJJ)	.	.	.
8C/J	.	.	.	(48a-/LLL	.	(8.ee-\L	.
.	.	.	.	48e-/	.	.	.
.	.	.	.	48a-/	.	.	.
.	.	.	.	48e-/	.	.	.
.	.	.	.	48a-/	.	.	.
.	.	.	.	48e-/JJJ)	.	.	.
16r	.	.	.	(48a-/LLL	.	.	.
.	.	.	.	48e-/	.	.	.
.	.	.	.	48a-/	.	.	.
16AA-/	.	.	.	48e-/	.	16cc\Jk)	.
.	.	.	.	48a-/	.	.	.
.	.	.	.	48e-/JJJ)	.	.	.
=90	=90	=90	=90	=90	=90	=90	=90
16BB-/LL	.	4E-/	.	(48g/LLL	.	(32ee-\LLL	.
.	.	.	.	48e-/	.	.	.
.	.	.	.	.	.	32dd-\)	.
.	.	.	.	48g/	.	.	.
16EE-/	.	.	.	48e-/	.	(32cc'\	.
.	.	.	.	48g/	.	.	.
.	.	.	.	.	.	32b-'\JJJ)	.
.	.	.	.	48e-/JJJ	.	.	.
16D-/	.	.	.	48g/LLL	.	(32an'\LLL	.
.	.	.	.	48e-/	.	.	.
.	.	.	.	.	.	32b-'\	.
.	.	.	.	48g/	.	.	.
16BB-/JJ	.	.	.	48e-/	.	32ff'\	.
.	.	.	.	48g/	.	.	.
.	.	.	.	.	.	32ee-'\JJJ)	.
.	.	.	.	48e-/JJJ)	.	.	.
8C/L	.	32E-/LLL	.	(48a-/LLL	.	(8.ee-\L	.
.	.	.	.	48e-/	.	.	.
.	.	32E-/	.	.	.	.	.
.	.	.	.	48a-/	.	.	.
.	.	32E-/	.	48e-/	.	.	.
.	.	.	.	48a-/	.	.	.
.	.	32E-/JJJ	.	.	.	.	.
.	.	.	.	48e-/JJJ	.	.	.
16r	.	32C/LLL	.	48a-/LLL	.	.	.
.	.	.	.	48e-/	.	.	.
.	.	32C/	.	.	.	.	.
.	.	.	.	48a-/	.	.	.
16AA-/Jk	.	32C/	.	48cc/	.	16eee-\Jk)	.
.	.	.	.	48a-/	.	.	.
.	.	32C/JJJ	.	.	.	.	.
.	.	.	.	48cc/JJJ)	.	.	.
=91	=91	=91	=91	=91	=91	=91	=91
8GG/L	f	4C/	f	(48b-\LLL	.	(8.een\L	f
.	.	.	.	48cc\	.	.	.
.	.	.	.	48b-\	.	.	.
.	.	.	.	48cc\	.	.	.
.	.	.	.	48b-\	.	.	.
.	.	.	.	48cc\JJJ	.	.	.
16r	.	.	.	48b-\LLL	.	.	.
.	.	.	.	48cc\	.	.	.
.	.	.	.	48b-\	.	.	.
16CC/Jk	.	.	.	48cc\	.	16eeen\Jk)	.
.	.	.	.	48b-\	.	.	.
.	.	.	.	48cc\JJJ)	.	.	.
8AA-/	f	4C/	.	(48a-/LLL	f	8..ff\L 8..fff\	f
.	.	.	.	48cc/	.	.	.
.	.	.	.	48a-/	.	.	.
.	.	.	.	48f/	.	.	.
.	.	.	.	48a-/	.	.	.
.	.	.	.	48f/JJJ	.	.	.
32r	.	.	.	48a-/LLL	.	.	.
.	.	.	.	48f/	.	.	.
32FF/LLL	.	.	.	.	.	.	.
.	.	.	.	48a-/	.	.	.
32GG/	.	.	.	48f/	.	.	.
.	.	.	.	48a-/	.	.	.
32AA-/JJJ	.	.	.	.	.	32f\Jkk	.
.	.	.	.	48f/JJJ)	.	.	.
=92	=92	=92	=92	=92	=92	=92	=92
8BB-/L	.	32C/LLL	.	(48g/LLL	.	(8dd-/L	.
.	.	.	.	48f/	.	.	.
.	.	32C/	.	.	.	.	.
.	.	.	.	48g/	.	.	.
.	.	32C/	.	48f/	.	.	.
.	.	.	.	48g/	.	.	.
.	.	32C/	.	.	.	.	.
.	.	.	.	48f/JJJ	.	.	.
8C/	.	32C/	.	48g/LLL	.	8cc/)	.
.	.	.	.	48en/	.	.	.
.	.	32C/	.	.	.	.	.
.	.	.	.	48g/	.	.	.
.	.	32C/	.	48e/	.	.	.
.	.	.	.	48g/	.	.	.
.	.	32C/JJJ	.	.	.	.	.
.	.	.	.	48e/JJJ)	.	.	.
8D-/J	p	8F/	p	(8f\L	p	8f/J	p
8r	.	8r	.	[8bb-\J)	.	8r	.
=93	=93	=93	=93	=93	=93	=93	=93
(4e-\	.	(4g-\	.	(8bb-\L]	.	(4cc\	.
.	.	.	.	8aa-\J	.	.	.
8f\L	.	8a-\L	.	8dd-\L	.	8dd-\L	.
8e-\J)	.	8gn\J)	.	8cc\J)	.	[8aa-\J)	.
=94	=94	=94	=94	=94	=94	=94	=94
4dn\	.	4f\	.	4bn\	.	8aa-\L]	.
.	.	.	.	.	.	[8gg\J	.
4G\	.	4G\ 4f\	.	4dn/ 4b/	.	(32gg\LLL]	.
.	.	.	.	.	.	32bbn\	.
.	.	.	.	.	.	32dddn\	.
.	.	.	.	.	.	32ggg\JJJ	.
.	.	.	.	.	.	32fff#\LLL	.
.	.	.	.	.	.	32ggg\	.
.	.	.	.	.	.	32fffn\	.
.	.	.	.	.	.	32ddd\JJJ)	.
=95	=95	=95	=95	=95	=95	=95	=95
8C/	.	8G/ 8en/	.	8en\L 8cc\	.	8eeen\L	.
.	.	.	.	dddnq/LL	.	fffq/LL	.
.	.	.	.	cccq/	.	eeeq/	.
.	.	.	.	bbnq/JJ	.	dddnq/JJ	.
8r	.	8r	.	(32ccc\LL	.	(32eee\LL	.
.	.	.	.	32eeen\)	.	32ggg\)	.
.	.	.	.	32ddd'\	.	32fff'\	.
.	.	.	.	32ccc'\JJJ	.	32eee'\JJJ	.
8GG/	.	8G\ 8f\	.	8bb\L	.	8ddd\L	.
.	.	.	.	cccq/LL	.	eeeq/LL	.
.	.	.	.	bbq/	.	dddq/	.
.	.	.	.	aanq/JJ	.	cccq/JJ	.
8r	.	8r	.	(32bb\LL	.	(32ddd\LL	.
.	.	.	.	32ddd\)	.	32fff\)	.
.	.	.	.	32ccc'\	.	32eee'\	.
.	.	.	.	32bb'\JJJ	.	32ddd'\JJJ	.
=96	=96	=96	=96	=96	=96	=96	=96
[8CC/L	.	8G\L 8en\	.	8een\L	.	8ccc\	.
.	.	ddnq/LL	.	ffq/LL	.	.	.
.	.	ccq/	.	eeq/	.	.	.
.	.	bnq/JJ	.	ddnq/JJ	.	.	.
32CC/LL]	.	(32cc\LL	.	(32ee\LL	.	4g\ 4gg\	.
32CC'/	.	32een\)	.	32gg\)	.	.	.
32EEn'/	.	32dd'\	.	32ff'\	.	.	.
32FF'/JJJ	.	32cc'\JJJ	.	32ee'\JJJ	.	.	.
[8GG/L	.	8b\L	.	8dd\L	.	.	.
.	.	ccq/LL	.	eeq/LL	.	.	.
.	.	bq/	.	ddq/	.	.	.
.	.	anq/JJ	.	ccq/JJ	.	.	.
32GG/LL]	.	(32b\LL	.	(32dd\LL	.	[8G/ [8g/	.
32GG'/	.	32a\)	.	32ff\)	.	.	.
32AAn'/	.	32g'\	.	32ee'\	.	.	.
32BBn'/JJJ	.	32f'\JJJ	.	32dd'\JJJ	.	.	.
=97	=97	=97	=97	=97	=97	=97	=97
4C/	.	8en\	.	8cc\	.	32G/] 32g/]	.
.	.	.	.	.	.	(32cc/LLL	.
.	.	.	.	.	.	32c/	.
.	.	.	.	.	.	32cc/JJJ	.
.	.	8r	.	8r	.	32en/LLL	.
.	.	.	.	.	.	32cc/	.
.	.	.	.	.	.	32g/	.
.	.	.	.	.	.	32cc/JJJ	.
4r	.	4r	.	4r	.	32bn\LLL	.
.	.	.	.	.	.	32cc\	.
.	.	.	.	.	.	32een\	.
.	.	.	.	.	.	32cc\JJJ	.
.	.	.	.	.	.	32gg\LLL	.
.	.	.	.	.	.	32cc\	.
.	.	.	.	.	.	32bb-\	.
.	.	.	.	.	.	32cc\JJJ)	.
=98	=98	=98	=98	=98	=98	=98	=98
*clefC4	*clefG2	*	*	*	*	*	*
(8f\L	.	2r	.	2r	.	(32aa-\LLL	.
.	.	.	.	.	.	32cc\	.
.	.	.	.	.	.	32ff\	.
.	.	.	.	.	.	32cc\JJJ	.
8a-\	.	.	.	.	.	32een\LLL	.
.	.	.	.	.	.	32cc\	.
.	.	.	.	.	.	32ff\	.
.	.	.	.	.	.	32cc\JJJ	.
8.cc\	.	.	.	.	.	32ee\LLL	.
.	.	.	.	.	.	32cc\	.
.	.	.	.	.	.	32ff\	.
.	.	.	.	.	.	32cc\JJJ	.
.	.	.	.	.	.	32gg\LLL	.
.	.	.	.	.	.	32cc\	.
16f\Jk)	.	.	.	.	.	32aa-\	.
.	.	.	.	.	.	32cc\JJJ)	.
=99	=99	=99	=99	=99	=99	=99	=99
(8en\L	.	2r	.	2r	.	(32bb-\LLL	.
.	.	.	.	.	.	32cc\	.
.	.	.	.	.	.	32aa-\	.
.	.	.	.	.	.	32cc\JJJ	.
8g\	.	.	.	.	.	32gg\LLL	.
.	.	.	.	.	.	32cc\	.
.	.	.	.	.	.	32ff\	.
.	.	.	.	.	.	32cc\JJJ	.
8.cc\	.	.	.	.	.	32een\LLL	.
.	.	.	.	.	.	32cc\	.
.	.	.	.	.	.	32gg\	.
.	.	.	.	.	.	32cc\JJJ	.
.	.	.	.	.	.	32dd-\LLL	.
.	.	.	.	.	.	32cc\	.
16b-\Jk)	.	.	.	.	.	32ee\	.
.	.	.	.	.	.	32cc\JJJ)	.
=100	=100	=100	=100	=100	=100	=100	=100
(16a-\LL	.	2f\	.	32r	.	(8ff\L	.
.	.	.	.	(32cc/LLL	.	.	.
16f\	.	.	.	32a-/	.	.	.
.	.	.	.	32cc/JJJ)	.	.	.
16en\	.	.	.	32r	.	8aa-\	.
.	.	.	.	(32cc/LLL	.	.	.
16f\JJ	.	.	.	32a-/	.	.	.
.	.	.	.	32cc/JJJ)	.	.	.
16e\LL	.	.	.	32r	.	8.ccc\	.
.	.	.	.	(32cc/LLL	.	.	.
16f\	.	.	.	32a-/	.	.	.
.	.	.	.	32cc/JJJ)	.	.	.
16g\	.	.	.	(32b-/LLL	.	.	.
.	.	.	.	32cc/	.	.	.
16a-\JJ)	.	.	.	32bn/)	.	16ff\Jk)	.
.	.	.	.	32cc/JJJ	.	.	.
=101	=101	=101	=101	=101	=101	=101	=101
(16b-\LL	.	[4c\	.	32r	.	(8een\L	.
.	.	.	.	16cc/LL	.	.	.
16a-\	.	.	.	.	.	.	.
.	.	.	.	(32cc/JJk	.	.	.
16g\	.	.	.	32b-/LLL	.	8gg\	.
.	.	.	.	32cc/	.	.	.
16f\JJ	.	.	.	32a-/	.	.	.
.	.	.	.	32cc\JJJ	.	.	.
16en\LL	.	8c\L_	.	32g/LLL	.	8.ccc\	.
.	.	.	.	32cc/	.	.	.
16g\	.	.	.	32b-/	.	.	.
.	.	.	.	32cc/JJJ	.	.	.
16c\	.	(32c\LL]	.	32en/LLL	.	.	.
.	.	32c\	.	32cc/	.	.	.
16B-\JJ)	.	32g\	.	32g/	.	16eeen\Jk)	.
.	.	32c\JJJ)	.	32cc/JJJ)	.	.	.
=102	=102	=102	=102	=102	=102	=102	=102
*clefF4	*clefF4	*	*	*	*	*	*
(8A-\L	.	32r	.	4cc\	.	(8fff\L	.
.	.	(32f\LLL	.	.	.	.	.
.	.	32a-\	.	.	.	.	.
.	.	32f\JJJ	.	.	.	.	.
8F\	.	32cc\LLL	.	.	.	8aaa-\	.
.	.	32f\	.	.	.	.	.
.	.	32a-\	.	.	.	.	.
.	.	32f\JJJ)	.	.	.	.	.
8.E-\	.	4r	.	32r	.	8.cccc\	.
.	.	.	.	(32cc\LLL	.	.	.
.	.	.	.	32ee-\	.	.	.
.	.	.	.	32cc\JJJ	.	.	.
.	.	.	.	32gg\LLL	.	.	.
.	.	.	.	32cc\	.	.	.
16G\Jk)	p	.	.	32ee-\	.	16eee-\Jk)	p
.	.	.	.	32cc\JJJ)	.	.	.
=103	=103	=103	=103	=103	=103	=103	=103
(8B-\L	.	32r	.	4r	.	(8ddd-\L	.
.	.	(32d-\LLL	.	.	.	.	.
.	.	32f\	.	.	.	.	.
.	.	32d-\JJJ	.	.	.	.	.
8D-\	.	32b-\LLL	.	.	.	8fff\	.
.	.	32d-\	.	.	.	.	.
.	.	32f\	.	.	.	.	.
.	.	32d-\JJJ)	.	.	.	.	.
8.C\	p	4r	.	32r	.	8.aaa-\	.
.	.	.	.	(32a-\LLL	.	.	.
.	.	.	.	32cc\	.	.	.
.	.	.	.	32a-\JJJ	.	.	.
.	.	.	.	32ee-\LLL	.	.	.
.	.	.	.	32a-\	.	.	.
16E-\Jk)	.	.	.	32cc\	.	16ccc\Jk)	p
.	.	.	.	32a-\JJJ)	.	.	.
=104	=104	=104	=104	=104	=104	=104	=104
(8G-\L	.	32r	.	4r	.	(8bb-\L	.
.	.	(32B-\LLL	.	.	.	.	.
.	.	32d-\	.	.	.	.	.
.	.	32B-\JJJ	.	.	.	.	.
8BB-\	.	32g-\LLL	.	.	.	8ddd-\	.
.	.	32B-\	.	.	.	.	.
.	.	32d-\	.	.	.	.	.
.	.	32B-\JJJ)	.	.	.	.	.
8.AA-\	.	32r	.	32r	.	8.fff\	.
.	.	(32F/LLL	.	(32f\LLL	.	.	.
.	.	32A-/	.	32a-\	.	.	.
.	.	32F/JJJ	.	32f\JJJ	.	.	.
.	.	32c/LLL	.	32cc\LLL	.	.	.
.	.	32A-/	.	32a-\	.	.	.
16F\Jk)	p	32f/	.	32ff\	.	16aa-\Jk)	p
.	.	32c/JJJ)	.	32cc\JJJ)	.	.	.
=105	=105	=105	=105	=105	=105	=105	=105
[8GG/	.	8Bn/	.	4ddn\	.	8fff\	.
32GG/LLL]	.	4.B\ 4.dn\	.	.	.	4.G/ 4.f/	.
32BBn/	.	.	.	.	.	.	.
32Dn/	.	.	.	.	.	.	.
32F/JJJ	.	.	.	.	.	.	.
32G\LLL	.	.	.	8r	.	.	.
32Bn\	.	.	.	.	.	.	.
32dn\	.	.	.	.	.	.	.
32f\JJJ	.	.	.	.	.	.	.
(16f#\LL	.	.	.	(16.bn\LL	.	.	.
16g\JJ)	.	.	.	.	.	.	.
.	.	.	.	32ff\JJk)	.	.	.
=106	=106	=106	=106	=106	=106	=106	=106
.	.	.	.	eenq/LL	.	.	.
.	.	.	.	ffq/	.	.	.
.	.	.	.	ggq/JJ	.	.	.
[8CC/	.	8r	.	(8ff\L	.	8bb-\	.
32CC/LLL]	.	(4B-/	.	8een\J)	.	4G/ 4en/	.
32EEn/	.	.	.	.	.	.	.
32GG/	.	.	.	.	.	.	.
32BBn/JJJ	.	.	.	.	.	.	.
32C\LLL	.	.	.	4r	.	.	.
32En\	.	.	.	.	.	.	.
32G\	.	.	.	.	.	.	.
32B-\JJJ	.	.	.	.	.	.	.
(16Bn\LL	.	8g\)	.	.	.	(16.een\LL	.
16c\JJ)	.	.	.	.	.	.	.
.	.	.	.	.	.	32bb-\JJk)	.
=107	=107	=107	=107	=107	=107	=107	=107
32r	.	(16cc\LL	.	(16e-/LL	.	(16bb-\LL	.
(32FF/LLL	.	.	.	.	.	.	.
32F/)	.	32een\JJk)	.	32cc/JJk)	.	32aan\JJk)	.
32F/JJJ	.	32r	.	32r	.	32r	.
32r	.	(16b-\LL	.	(16dn/LL	.	(16bb-\LL	.
(32BB-\LLL	.	.	.	.	.	.	.
32B-\)	.	32ddn\JJk)	.	32b-/JJk)	.	32aa-\JJk)	.
32B-\JJJ	.	32r	.	32r	.	32r	.
32r	.	(16d-\LL	.	(16b-\LL	.	(16aa-\LL	.
(32En\LLL	.	.	.	.	.	.	.
32en\)	.	32b-\JJk)	.	32dd-\JJk)	.	32gg\JJk)	.
32e\JJJ	.	32r	.	32r	.	32r	.
32r	.	(16c\LL	.	(16a-\LL	.	(16gg\LL	.
(32F\LLL	.	.	.	.	.	.	.
32f\)	.	32a-\JJk)	.	32cc\JJk)	.	32ff\JJk)	.
32f\JJJ	.	32r	.	32r	.	32r	.
=108	=108	=108	=108	=108	=108	=108	=108
*clefC4	*clefG2	*	*	*	*	*	*
(32f\LLL	.	(32a-\LLL	.	(32cc\LLL	.	(32ff\LLL	.
32g\JJJ)	.	32b-\JJJ)	.	32cc\JJJ)	.	32een\JJJ)	.
32r	.	32r	.	32r	.	32r	.
32g\	.	32b-\	.	32dd-\	.	32ee\	.
(32g\LLL	.	(32b-\LLL	.	(32dd-\LLL	.	(32ee\LLL	.
32a-\JJJ)	.	32a-\JJJ)	.	32cc\JJJ)	.	32ff\JJJ)	.
32r	.	32r	.	32r	.	32r	.
32en\	.	32b-\	.	32cc\	.	32gg\	.
(32e\LLL	.	(32b-\LLL	.	(32cc\LLL	.	(32gg\LLL	.
32f\)	.	32a-\)	.	32ff\)	.	32aa-\)	.
(32f\	.	(32a-\	.	(32ff\	.	(32aa-\	.
32e-\JJJ)	.	32cc-\JJJ)	.	32gg-\JJJ)	.	32aan\JJJ)	.
(32e-\LLL	.	(32cc-\LLL	.	(32gg-\LLL	.	(32aa\LLL	.
32d-\JJJ)	.	32f\)	.	32ff\)	.	32bb-\)	.
16r	.	(32dd-\	.	(32ff\	.	(32bb-\	.
.	.	32an\JJJ)	.	32ee-\JJJ)	.	32ccc\JJJ)	.
=109	=109	=109	=109	=109	=109	=109	=109
*clefF4	*clefF4	*	*	*	*	*	*
8r	.	(32an\LLL	.	(32ee-\LLL	.	(32ccc\LLL	.
.	.	32b-\)	.	32dd-\)	.	32ddd-\)	.
.	.	(32b-\	.	(32dd-\	.	(32ddd-\	.
.	.	32g\JJJ)	.	32b-\JJJ)	.	32eeen\JJJ)	.
16r	.	(32g\LLL	.	(32b-\LLL	.	(32eee\LLL	.
.	.	32a-\)	.	32cc\)	.	32fff\)	.
(32A-\LLL	.	(32a-\	.	(32cc\	.	(32fff\	.
32En\JJJ)	.	32c\JJJ)	.	32b-\JJJ)	.	32ggg\JJJ)	.
(32E\LLL	.	32c\LLL	.	(32b-/LLL	.	(32ggg\LLL	.
32F\)	.	32c\	.	32a-/)	.	32aaa-\)	.
(32F\	.	(32c\	.	32a-/	.	(32aaa-\	.
32Dn\JJJ)	.	32f\JJJ)	.	32a-/JJJ	.	32bbn\JJJ)	.
(32D/LLL	.	(32f\LLL	.	(32a-\LLL	.	(32bb\LLL	.
32C/)	.	32a-\)	.	32ff\)	.	32ccc\)	.
(32C/	.	(32a-\	.	(32ff\	.	(32ccc\	.
32BB-/JJJ)	.	32f\JJJ)	.	32aa-\JJJ)	.	32dddn\JJJ)	.
=110	=110	=110	=110	=110	=110	=110	=110
8BBn'/	.	8f'\	.	8aa-'\	.	8dddn'\	.
8r	.	8r	.	8r	.	8r	.
8D-'\	f	8F'/	f	8A-'/ 8f'/	f	8Bn'/	f
8r	.	8r	.	8r	.	8r	.
=111	=111	=111	=111	=111	=111	=111	=111
16C/	.	16F/	p	16A-/ 16f/	.	8.c/	p
16r	p	16r	.	16r	.	.	.
8r	.	(8f\L	.	(8a-\L	.	.	.
.	.	.	.	.	.	cccq/LL	.
.	.	.	.	.	.	eee-q/JJ	.
.	.	.	.	.	.	32.ddd-'\LLL	.
.	.	.	.	.	.	64ccc'\JJJk	.
4r	.	8g\	.	8b-\	.	16ccc\LL	.
.	.	.	.	.	.	cccq/LL	.
.	.	.	.	.	.	eee-q/JJ	.
.	.	.	.	.	.	32.ddd-'/L	.
.	.	.	.	.	.	64ccc'/JJJk	.
.	.	8a-\J)	.	8cc\J)	.	16ccc\	.
.	.	.	.	.	.	cccq/LL	.
.	.	.	.	.	.	eee-q/JJ	.
.	.	.	.	.	.	32.ddd-'\LLL	.
.	.	.	.	.	.	64ccc'\JJJk	.
=112	=112	=112	=112	=112	=112	=112	=112
8r	.	(8b-\L	.	(8dd-\L	.	16ccc\LK	.
.	.	.	.	.	.	16r	.
16r	.	8dd-\J	.	8gg\J	.	(8bb-\J	.
CCq/LL	.	.	.	.	.	.	.
EE-q/JJ	.	.	.	.	.	.	.
32.DD-'/LLL	.	.	.	.	.	.	.
64CC'/JJJk	.	.	.	.	.	.	.
16CC/	.	8cc\L	.	8ff\L	.	8aa-\L	.
CCq/LL	.	.	.	.	.	.	.
EE-q/JJ	.	.	.	.	.	.	.
32.DD-'/LLL	.	.	.	.	.	.	.
64CC'/JJJk	.	.	.	.	.	.	.
16CC/	.	8b-\J	.	8een\J	.	8gg\J	.
CCq/LL	.	.	.	.	.	.	.
EE-q/JJ	.	.	.	.	.	.	.
32.DD-'/LLL	.	.	.	.	.	.	.
64CC'/JJJk	.	.	.	.	.	.	.
=113	=113	=113	=113	=113	=113	=113	=113
16FF/	.	16a-\)	.	16ff\)	.	16ff\)	.
16r	.	16r	.	16r	.	32r	.
.	.	.	.	.	.	32ccc\	.
8r	.	(8F/L	.	(8A-/L	.	32r	.
.	.	.	.	.	.	(64ccc\LLLL	.
.	.	.	.	.	.	64eee-\J)	.
.	.	.	.	.	.	32ddd-'\	.
.	.	.	.	.	.	32ccc'\JJJ	.
4r	.	8G/	.	8B-/	.	32r	.
.	.	.	.	.	.	(64ccc\LLLL	.
.	.	.	.	.	.	64eee-\J)	.
.	.	.	.	.	.	32ddd-'\	.
.	.	.	.	.	.	32ccc'\JJJ	.
.	.	8A-/J)	.	8c/J)	.	32r	.
.	.	.	.	.	.	(64ccc\LLLL	.
.	.	.	.	.	.	64eee-\J)	.
.	.	.	.	.	.	32ddd-'\	.
.	.	.	.	.	.	32ccc'\JJJ	.
=114	=114	=114	=114	=114	=114	=114	=114
16.r	.	(8B-\L	.	(8d-/L	.	16ccc\	.
.	.	.	.	.	.	16r	.
32CC/	.	.	.	.	.	.	.
32r	.	8d-\	.	8b-/	.	(8g/L	.
(64CC/LLLL	.	.	.	.	.	.	.
64EE-/J)	.	.	.	.	.	.	.
32DD-'/	.	.	.	.	.	.	.
32CC'/JJJ	.	.	.	.	.	.	.
32r	.	8c\	.	8a-/J)	.	8f/	.
(64CC/LLLL	.	.	.	.	.	.	.
64EE-/J)	.	.	.	.	.	.	.
32DD-'/	.	.	.	.	.	.	.
32CC'/JJJ	.	.	.	.	.	.	.
32r	.	8B-\J)	.	(16.g/LL	.	8c/J)	.
(64CC/LLLL	.	.	.	.	.	.	.
64EEn/J)	.	.	.	.	.	.	.
32DDn'/	.	.	.	.	.	.	.
32CC'/JJJ	.	.	.	32cc/JJk)	.	.	.
=115	=115	=115	=115	=115	=115	=115	=115
32FF/LLL	.	(48A-/LLL	.	(8cc\L	.	4c/	.
.	.	48C/	.	.	.	.	.
32FF/	.	.	.	.	.	.	.
.	.	48A-/	.	.	.	.	.
32FF/	.	48C/	.	.	.	.	.
.	.	48A-/	.	.	.	.	.
32FF/JJJ	.	.	.	.	.	.	.
.	.	48C/JJJ	.	.	.	.	.
32CC/LLL	.	48A-/LLL	.	16.ee-\L	.	.	.
.	.	48C/	.	.	.	.	.
32CC/	.	.	.	.	.	.	.
.	.	48A-/	.	.	.	.	.
32CC/	.	48C/	.	.	.	.	.
.	.	48A-/	.	.	.	.	.
32CC/JJJ	.	.	.	32dd-\JJk)	.	.	.
.	.	48C/JJJ)	.	.	.	.	.
32GG/LLL	.	(48B-/LLL	.	(8f/L	.	(8bb-\L	.
.	.	48C/	.	.	.	.	.
32GG/	.	.	.	.	.	.	.
.	.	48B-/	.	.	.	.	.
32GG/	.	48C/	.	.	.	.	.
.	.	48B-/	.	.	.	.	.
32GG/JJJ	.	.	.	.	.	.	.
.	.	48C/JJJ	.	.	.	.	.
32CC/LLL	.	48B-/LLL	.	8en/J)	.	16.ddd-\L	.
.	.	48C/	.	.	.	.	.
32CC/	.	.	.	.	.	.	.
.	.	48B-/	.	.	.	.	.
32CC/	.	48C/	.	.	.	.	.
.	.	48B-/	.	.	.	.	.
32CC/JJJ	.	.	.	.	.	32ccc\JJk)	.
.	.	48C/JJJ)	.	.	.	.	.
=116	=116	=116	=116	=116	=116	=116	=116
32AA-/LLL	.	(48c/LLL	.	(8f/L	.	[4ccc\	.
.	.	48C/	.	.	.	.	.
32AA-/	.	.	.	.	.	.	.
.	.	48c/	.	.	.	.	.
32AA-/	.	48C/	.	.	.	.	.
.	.	48c/	.	.	.	.	.
32AA-/JJJ	.	.	.	.	.	.	.
.	.	48C/JJJ	.	.	.	.	.
32EEn/LLL	.	48c/LLL	.	16.cc/L	.	.	.
.	.	48C/	.	.	.	.	.
32EE/	.	.	.	.	.	.	.
.	.	48c/	.	.	.	.	.
32EE/	.	48C/	.	.	.	.	.
.	.	48c/	.	.	.	.	.
32EE/JJJ	.	.	.	32g/JJk	.	.	.
.	.	48C/JJJ)	.	.	.	.	.
32FF/LLL	.	(48G/LLL	.	8b-/L	.	(8ccc\L]	.
.	.	48C/	.	.	.	.	.
32FF/	.	.	.	.	.	.	.
.	.	48G/	.	.	.	.	.
32FF/	.	48C/	.	.	.	.	.
.	.	48G/	.	.	.	.	.
32FF/JJJ	.	.	.	.	.	.	.
.	.	48C/JJJ	.	.	.	.	.
32FF/LLL	.	48F/LLL	.	8a-/J)	.	16.fff\L	.
.	.	48C/	.	.	.	.	.
32FF/	.	.	.	.	.	.	.
.	.	48F/	.	.	.	.	.
32FF/	.	48C/	.	.	.	.	.
.	.	48F/	.	.	.	.	.
32FF/JJJ	.	.	.	.	.	32ccc\JJk)	.
.	.	48C/JJJ)	.	.	.	.	.
=117	=117	=117	=117	=117	=117	=117	=117
32AA-/LLL	.	(48F/LLL	.	(8..cc\L	.	(8..ccc\L	.
.	.	48C/	.	.	.	.	.
32AA-/	.	.	.	.	.	.	.
.	.	48F/	.	.	.	.	.
32AA-/	.	48C/	.	.	.	.	.
.	.	48F/	.	.	.	.	.
32AA-/JJJ	.	.	.	.	.	.	.
.	.	48C/JJJ)	.	.	.	.	.
32FF/LLL	.	(48A-/LLL	.	.	.	.	.
.	.	48C/	.	.	.	.	.
32FF/	.	.	.	.	.	.	.
.	.	48A-/	.	.	.	.	.
32FF/	.	48C/	.	.	.	.	.
.	.	48A-/	.	.	.	.	.
32FF/JJJ	.	.	.	32ff\Jkk)	.	32fff\Jkk)	.
.	.	48C/JJJ)	.	.	.	.	.
32GG/LLL	.	(48B-/LLL	.	(8ff\L	.	(8fff\L	.
.	.	48C/	.	.	.	.	.
32GG/	.	.	.	.	.	.	.
.	.	48B-/	.	.	.	.	.
32GG/	.	48C/	.	.	.	.	.
.	.	48B-/	.	.	.	.	.
32GG/JJJ	.	.	.	.	.	.	.
.	.	48C/JJJ)	.	.	.	.	.
32GG/LLL	.	(48B-/LLL	.	16een\L	.	16eeen\L	.
.	.	48C/	.	.	.	.	.
32GG/	.	.	.	.	.	.	.
.	.	48B-/	.	.	.	.	.
32FF/	.	48A-/	.	16ff\JJ)	.	16fff\JJ)	.
.	.	48C/	.	.	.	.	.
32FF/JJJ	.	.	.	.	.	.	.
.	.	48A-/JJJ)	.	.	.	.	.
=118	=118	=118	=118	=118	=118	=118	=118
.	.	.	.	eeq/LL	.	eeeq/LL	.
.	.	.	.	ffq/JJ	.	fffq/JJ	.
32EEn/LLL	.	(48G/LLL	.	(16gg\LL	.	(16ggg\LL	.
.	.	48C/	.	.	.	.	.
32EE/	.	.	.	.	.	.	.
.	.	48G/	.	.	.	.	.
32CC/	.	48En/	.	16cc\)	.	16ccc\)	.
.	.	48G/	.	.	.	.	.
32CC/JJJ	.	.	.	.	.	.	.
.	.	48E/JJJ)	.	.	.	.	.
32FF/LLL	.	(48A-/LLL	.	(16cc'\	.	(16ccc'\	.
.	.	48F/	.	.	.	.	.
32FF/	.	.	.	.	.	.	.
.	.	48A-/	.	.	.	.	.
32AA-/	.	48F/	.	16bn'\JJ)	.	16bbn'\JJ)	.
.	.	48A-/	.	.	.	.	.
32AA-/JJJ	.	.	.	.	.	.	.
.	.	48F/JJJ)	.	.	.	.	.
32C/LLL	.	(48A-/LLL	.	(8b\L	.	(8bb\L	.
.	.	48F/	.	.	.	.	.
32C/	.	.	.	.	.	.	.
.	.	48A-/	.	.	.	.	.
32C/	.	48F/	.	.	.	.	.
.	.	48A-/	.	.	.	.	.
32C/JJJ	.	.	.	.	.	.	.
.	.	48F/JJJ)	.	.	.	.	.
32C/LLL	.	(48E/LLL	.	8cc\J)	.	8ccc\J)	.
.	.	48G/	.	.	.	.	.
32C/	.	.	.	.	.	.	.
.	.	48E/	.	.	.	.	.
32C/	.	48G/	.	.	.	.	.
.	.	48E/	.	.	.	.	.
32C/JJJ	.	.	.	.	.	.	.
.	.	48G/JJJ)	.	.	.	.	.
=119	=119	=119	=119	=119	=119	=119	=119
32BB-/LLL	.	(48E-/LLL	.	(8dd-\L	.	(8ddd-\L	.
.	.	48G/	.	.	.	.	.
32BB-/	.	.	.	.	.	.	.
.	.	48E-/	.	.	.	.	.
32BB-/	.	48G/	.	.	.	.	.
.	.	48E-/	.	.	.	.	.
32BB-/JJJ	.	.	.	.	.	.	.
.	.	48G/JJJ	.	.	.	.	.
32D-\LLL	.	48E-/LLL	.	16.b-\L	.	16.bb-\L	.
.	.	48G/	.	.	.	.	.
32D-\	.	.	.	.	.	.	.
.	.	48E-/	.	.	.	.	.
32D-\	.	48G/	.	.	.	.	.
.	.	48E-/	.	.	.	.	.
32D-\JJJ	.	.	.	32ee-\JJk)	.	32eee-\JJk)	.
.	.	48G/JJJ)	.	.	.	.	.
32C/LLL	.	(48E-/LLL	.	(8.ee-\L	.	(8.eee-\L	.
.	.	48A-/	.	.	.	.	.
32C/	.	.	.	.	.	.	.
.	.	48E-/	.	.	.	.	.
32C/	.	48A-/	.	.	.	.	.
.	.	48E-/	.	.	.	.	.
32C/JJJ	.	.	.	.	.	.	.
.	.	48A-/JJJ	.	.	.	.	.
32C/LLL	.	48E-/LLL	.	.	.	.	.
.	.	48A-/	.	.	.	.	.
32C/	.	.	.	.	.	.	.
.	.	48E-/	.	.	.	.	.
32AA-/	.	48A-/	.	16cc\Jk)	.	16ccc\Jk)	.
.	.	48E-/	.	.	.	.	.
32AA-/JJJ	.	.	.	.	.	.	.
.	.	48A-/JJJ)	.	.	.	.	.
=120	=120	=120	=120	=120	=120	=120	=120
32BB-/LLL	.	(48E-/LLL	.	(32ee-\LLL	.	(32eee-\LLL	.
.	.	48G/	.	.	.	.	.
32BB-/	.	.	.	32dd-\)	.	32ddd-\)	.
.	.	48E-/	.	.	.	.	.
32BB-/	.	48G/	.	(32cc'\	.	(32ccc'\	.
.	.	48E-/	.	.	.	.	.
32BB-/JJJ	.	.	.	32b-'\JJJ)	.	32bb-'\JJJ)	.
.	.	48G/JJJ	.	.	.	.	.
32D-\LLL	.	48E-/LLL	.	(32an'\LLL	.	(32aan'\LLL	.
.	.	48G/	.	.	.	.	.
32D-\	.	.	.	32b-'\	.	32bb-'\	.
.	.	48E-/	.	.	.	.	.
32D-\	.	48G/	.	32ff'\	.	32fff'\	.
.	.	48E-/	.	.	.	.	.
32D-\JJJ	.	.	.	32ee-'\JJJ)	.	32eee-'\JJJ)	.
.	.	48G/JJJ)	.	.	.	.	.
32C/LLL	.	(48E-/LLL	.	(4ee-\	.	(4eee-\	.
.	.	48A-/	.	.	.	.	.
32C/	.	.	.	.	.	.	.
.	.	48E-/	.	.	.	.	.
32C/	.	48A-/	.	.	.	.	.
.	.	48E-/	.	.	.	.	.
32C/JJJ	.	.	.	.	.	.	.
.	.	48A-/JJJ	.	.	.	.	.
32C/LLL	.	48E-/LLL	.	.	.	.	.
.	.	48A-/	.	.	.	.	.
32C/	.	.	.	.	.	.	.
.	.	48E-/	.	.	.	.	.
32AA-/	.	48c/	.	.	.	.	.
.	.	48A-/	.	.	.	.	.
32AA-/JJJ	.	.	.	.	.	.	.
.	.	48c/JJJ)	.	.	.	.	.
=121	=121	=121	=121	=121	=121	=121	=121
32GG/LLL	f	(48B-/LLL	f	4cc\) 4een\	f	4eeen\)	f
.	.	48c/	.	.	.	.	.
32GG/	.	.	.	.	.	.	.
.	.	48B-/	.	.	.	.	.
32GG/	.	48c/	.	.	.	.	.
.	.	48B-/	.	.	.	.	.
32GG/JJJ	.	.	.	.	.	.	.
.	.	48c/JJJ	.	.	.	.	.
32CC/LLL	.	48B-/LLL	.	.	.	.	.
.	.	48c/	.	.	.	.	.
32CC/	.	.	.	.	.	.	.
.	.	48B-/	.	.	.	.	.
32CC/	.	48c/	.	.	.	.	.
.	.	48B-/	.	.	.	.	.
32CC/JJJ	.	.	.	.	.	.	.
.	.	48c/JJJ)	.	.	.	.	.
32AA-/LLL	.	(48A-/LLL	.	8..cc\L 8..ff\	.	8..fff\L	.
.	.	48c/	.	.	.	.	.
32AA-/	.	.	.	.	.	.	.
.	.	48A-/	.	.	.	.	.
32AA-/	.	48c/	.	.	.	.	.
.	.	48A-/	.	.	.	.	.
32AA-/JJJ	.	.	.	.	.	.	.
.	.	48c/JJJ	.	.	.	.	.
32AAn/LLL	.	48F/LLL	.	.	.	.	.
.	.	48c/	.	.	.	.	.
32AA/	.	.	.	.	.	.	.
.	.	48F/	.	.	.	.	.
32AA/	.	48c/	.	.	.	.	.
.	.	48F/	.	.	.	.	.
32AA/JJJ	.	.	.	32f\Jkk	.	32ff\Jkk	.
.	.	48c/JJJ)	.	.	.	.	.
=122	=122	=122	=122	=122	=122	=122	=122
(8BB-/L	.	(48F/LLL	.	(8dd-\L	.	(8ddd-\L	.
.	.	48B-/	.	.	.	.	.
.	.	48F/	.	.	.	.	.
.	.	48B-/	.	.	.	.	.
.	.	48F/	.	.	.	.	.
.	.	48B-/JJJ)	.	.	.	.	.
8C/J	.	(48E-/LLL	.	8cc\J)	.	8ccc\	.
.	.	48An/	.	.	.	.	.
.	.	48E-/	.	.	.	.	.
.	.	48A/	.	.	.	.	.
.	.	48E-/	.	.	.	.	.
.	.	48A/JJJ)	.	.	.	.	.
8.D-\L	.	8.F/L	.	48r	.	8.bb-\	.
.	.	.	.	(48b-/LLL	.	.	.
.	.	.	.	48f/	.	.	.
.	.	.	.	48b-/	.	.	.
.	.	.	.	48f/	.	.	.
.	.	.	.	48b-/JJJ	.	.	.
.	.	.	.	48f/LLL	.	.	.
.	.	.	.	48b-/	.	.	.
.	.	.	.	48f/	.	.	.
16Dn\Jk)	.	16F/Jk	.	48b-/	.	16aa-\Jk)	.
.	.	.	.	48f/	.	.	.
.	.	.	.	48b-/JJJ)	.	.	.
=123	=123	=123	=123	=123	=123	=123	=123
(8E-\L	.	(8G/L	.	48r	.	(8gg\L	.
.	.	.	.	(48b-/LLL	.	.	.
.	.	.	.	48e-/	.	.	.
.	.	.	.	48b-/	.	.	.
.	.	.	.	48e-/	.	.	.
.	.	.	.	48b-/JJJ)	.	.	.
8F\J	.	8A-/	.	48r	.	8ff\	.
.	.	.	.	(48b-/LLL	.	.	.
.	.	.	.	48dn/	.	.	.
.	.	.	.	48b-/	.	.	.
.	.	.	.	48d/	.	.	.
.	.	.	.	48b-/JJJ)	.	.	.
8.G\L)	.	8.B-/)	.	48r	.	8.ee-\	.
.	.	.	.	(48b-/LLL	.	.	.
.	.	.	.	48e-/	.	.	.
.	.	.	.	48b-/	.	.	.
.	.	.	.	48e-/	.	.	.
.	.	.	.	48b-/JJJ	.	.	.
.	.	.	.	48e-/LLL	.	.	.
.	.	.	.	48b-/	.	.	.
.	.	.	.	48e-/	.	.	.
16G\Jk	.	16B-/Jk	.	48b-/	.	16dd-\Jk)	.
.	.	.	.	48en/	.	.	.
.	.	.	.	48b-/JJJ)	.	.	.
=124	=124	=124	=124	=124	=124	=124	=124
(8A-\L	.	8c\L	.	48r	.	(4cc\	.
.	.	.	.	(48a-/LLL	.	.	.
.	.	.	.	48f/	.	.	.
.	.	.	.	48a-/	.	.	.
.	.	.	.	48f/	.	.	.
.	.	.	.	48a-/JJJ)	.	.	.
8An\J	.	(8c\J	.	48r	.	.	.
.	.	.	.	(48g-/LLL	.	.	.
.	.	.	.	48e-/	.	.	.
.	.	.	.	48g-/	.	.	.
.	.	.	.	48e-/	.	.	.
.	.	.	.	48g-/JJJ)	.	.	.
8B-\L	.	8d-\L	.	48r	.	8b-/L	.
.	.	.	.	(48g-/LLL	.	.	.
.	.	.	.	48d-/	.	.	.
.	.	.	.	48g-/	.	.	.
.	.	.	.	48d-/	.	.	.
.	.	.	.	48g-/JJJ)	.	.	.
8Bn\J)	.	8dn\J)	.	48r	.	8a-/J)	.
.	.	.	.	(48f/LLL	.	.	.
.	.	.	.	48d-/	.	.	.
.	.	.	.	48f/	.	.	.
.	.	.	.	48dn/	.	.	.
.	.	.	.	48f/JJJ)	.	.	.
=125	=125	=125	=125	=125	=125	=125	=125
(8..c\L	.	8en\L	.	(8en/L	.	(8g/L	.
.	.	(16.e\L	.	16.g/L)	.	16.cc/L	.
32d-\Jkk)	.	32f\JJk)	.	32g/JJk	.	(32bn/JJk)	.
(8d-\L	.	8f\L	.	8g/L	.	8b\L)	.
8dn\J)	.	8f\J	.	(8g/J 8bn/	.	8gg\J	.
=126	=126	=126	=126	=126	=126	=126	=126
8c\L	.	(8en\L	.	(8g/L) 8cc/	.	(64gg\LLLL	.
.	.	.	.	.	.	64ff#\	.
.	.	.	.	.	.	64gg\	.
.	.	.	.	.	.	64aan\	.
.	.	.	.	.	.	64gg\	.
.	.	.	.	.	.	64ffn\	.
.	.	.	.	.	.	64een\	.
.	.	.	.	.	.	64ddn\JJJJ)	.
(16.c\L	.	16.g\L)	.	16.en/L	.	(16.cc\LL	.
32d-\JJk)	.	32g\JJk	.	32f/JJk)	.	32bn\JJk)	.
(8d-\L	.	(8g\L	.	(8f/L	.	(8b\L	.
8dn\J)	.	[8f\J)	.	[8g/J) [8bn/	.	[8gg\J)	.
=127	=127	=127	=127	=127	=127	=127	=127
2dn\	.	2f\]	.	2g/] 2b/]	.	8gg\L_	.
.	.	.	.	.	.	(64gg\LLL]	p
.	.	.	.	.	.	64aan\	.
.	.	.	.	.	.	64gg\	.
.	.	.	.	.	.	64ff\	.
.	.	.	.	.	.	64gg\	.
.	.	.	.	.	.	64aa\	.
.	.	.	.	.	.	64bbn\	.
.	.	.	.	.	.	64ccc\JJJJ	.
.	.	.	.	.	.	64bb\LLLL	.
.	.	.	.	.	.	64ccc\	.
.	.	.	.	.	.	64bb\	.
.	.	.	.	.	.	64aa\	.
.	.	.	.	.	.	64bb\	.
.	.	.	.	.	.	64ccc\	.
.	.	.	.	.	.	64dddn\	.
.	.	.	.	.	.	64eeen\JJJJ	.
.	.	.	.	.	.	64ddd\LLLL	.
.	.	.	.	.	.	64eee\	.
.	.	.	.	.	.	64ddd\	.
.	.	.	.	.	.	64ccc#\	.
.	.	.	.	.	.	64ddd\	.
.	.	.	.	.	.	64eee\	.
.	.	.	.	.	.	64fff\	.
.	.	.	.	.	.	64ggg\JJJJ	.
=128	=128	=128	=128	=128	=128	=128	=128
2G\	p	4bn\	p	4f/ 4ddn/	p	64fff\LLLL	.
.	.	.	.	.	.	64ggg\	.
.	.	.	.	.	.	64fff\	.
.	.	.	.	.	.	64eeen\	.
.	.	.	.	.	.	64fff\	.
.	.	.	.	.	.	64ggg\	.
.	.	.	.	.	.	64aaan\	.
.	.	.	.	.	.	64ggg\JJJJ	.
.	.	.	.	.	.	64fff\LLLL	.
.	.	.	.	.	.	64ggg\	.
.	.	.	.	.	.	64fff\	.
.	.	.	.	.	.	64eee\	.
.	.	.	.	.	.	64dddn\	.
.	.	.	.	.	.	64eee\	.
.	.	.	.	.	.	64ddd\	.
.	.	.	.	.	.	64ccc\JJJJ	.
.	.	[4Bn\ [4dn\	.	[4f/	.	64bbn\LLLL	.
.	.	.	.	.	.	64ccc\	.
.	.	.	.	.	.	64bb\	.
.	.	.	.	.	.	64aan\	.
.	.	.	.	.	.	64gg\	.
.	.	.	.	.	.	64aa\	.
.	.	.	.	.	.	64gg\	.
.	.	.	.	.	.	64ff\JJJJ	.
.	.	.	.	.	.	64een\LLLL	.
.	.	.	.	.	.	64ff\	.
.	.	.	.	.	.	64ee\	.
.	.	.	.	.	.	64ddn\	.
.	.	.	.	.	.	64cc\	.
.	.	.	.	.	.	64dd\	.
.	.	.	.	.	.	64cc\	.
.	.	.	.	.	.	64bn\JJJJ)	.
=129	=129	=129	=129	=129	=129	=129	=129
2GG/	.	2B\] 2d\]	.	2G/ 2f/]	.	(64an/LLLL	.
.	.	.	.	.	.	64bn/	.
.	.	.	.	.	.	64a/	.
.	.	.	.	.	.	64g/	.
.	.	.	.	.	.	64f/	.
.	.	.	.	.	.	64g/	.
.	.	.	.	.	.	64f/	.
.	.	.	.	.	.	64en/JJJJ	.
.	.	.	.	.	.	64dn/LLLL	.
.	.	.	.	.	.	64e/	.
.	.	.	.	.	.	64d/	.
.	.	.	.	.	.	64c/	.
.	.	.	.	.	.	64Bn/	.
.	.	.	.	.	.	64c/	.
.	.	.	.	.	.	64B/	.
.	.	.	.	.	.	64An/JJJJ	.
.	.	.	.	.	.	64G/LLLL	.
.	.	.	.	.	.	64B/	.
.	.	.	.	.	.	64A/	.
.	.	.	.	.	.	64c/	.
.	.	.	.	.	.	64B/	.
.	.	.	.	.	.	64d/	.
.	.	.	.	.	.	64c/	.
.	.	.	.	.	.	64e/JJJJ	.
.	.	.	.	.	.	64d/LLLL	.
.	.	.	.	.	.	64f/	.
.	.	.	.	.	.	64e/	.
.	.	.	.	.	.	64g/	.
.	.	.	.	.	.	64f/	.
.	.	.	.	.	.	64a/	.
.	.	.	.	.	.	64g/	.
.	.	.	.	.	.	64B/JJJJ)	.
=130	=130	=130	=130	=130	=130	=130	=130
8C/	.	8c\	.	8G/ 8en/	.	64c'/LLLL	.
.	.	.	.	.	.	64c'/	.
.	.	.	.	.	.	64dn'/	.
.	.	.	.	.	.	64en'/	.
.	.	.	.	.	.	64f'/	.
.	.	.	.	.	.	64g'/	.
.	.	.	.	.	.	64an'/	.
.	.	.	.	.	.	64bn'/JJJJ	.
8r	.	8r	.	64r	.	64cc'/LLLL	.
.	.	.	.	64cc'/LLLL	.	64e'/	.
.	.	.	.	64bn'/	.	64f'/	.
.	.	.	.	64an'/	.	64g'/	.
.	.	.	.	64g'/	.	64a'/	.
.	.	.	.	64f'/	.	64b'/	.
.	.	.	.	64e'/	.	64cc'/	.
.	.	.	.	64dn'/JJJJ	.	64ddn'/JJJJ	.
4r	.	8r	.	16c/	.	64een\LLLL	.
.	.	.	.	.	.	64cc\	.
.	.	.	.	.	.	64dd\	.
.	.	.	.	.	.	64ee\	.
.	.	.	.	16r	.	64ff\	.
.	.	.	.	.	.	64gg\	.
.	.	.	.	.	.	64aan\	.
.	.	.	.	.	.	64bbn\JJJJ	.
.	.	64r	.	8r	.	64ccc\LLLL	.
.	.	64c'/LLLL	.	.	.	64ee\	.
.	.	64Bn'/	.	.	.	64ff\	.
.	.	64An'/	.	.	.	64gg\	.
.	.	64G'/	.	.	.	64aa\	.
.	.	64F'/	.	.	.	64bb\	.
.	.	64En'/	.	.	.	64ccc\	.
.	.	64Dn'/JJJJ	.	.	.	64dddn\JJJJ	.
=131	=131	=131	=131	=131	=131	=131	=131
8r	.	16C/	.	2r	.	64eeen\LLLL	.
.	.	.	.	.	.	64gg\	.
.	.	.	.	.	.	64aan\	.
.	.	.	.	.	.	64bbn\	.
.	.	8.r	.	.	.	64ccc\	.
.	.	.	.	.	.	64dddn\	.
.	.	.	.	.	.	64eee\	.
.	.	.	.	.	.	64fff\JJJJ	.
64r	.	.	.	.	.	64ggg\LLLL	.
64C'/LLLL	.	.	.	.	.	64ccc\	.
64BBn'/	.	.	.	.	.	64ddd\	.
64AAn'/	.	.	.	.	.	64eee\	.
64GG'/	.	.	.	.	.	64fff\	.
64FF'/	.	.	.	.	.	64ggg\	.
64EEn'/	.	.	.	.	.	64aaan\	.
64DDn'/JJJJ	.	.	.	.	.	64bbbn\JJJJ	.
16CC'/	.	4r	.	.	.	(64cccc\LLLL	.
.	.	.	.	.	.	64ggg\	.
.	.	.	.	.	.	64aaa\	.
.	.	.	.	.	.	64fff\	.
16r	.	.	.	.	.	64ggg\	.
.	.	.	.	.	.	64eee\	.
.	.	.	.	.	.	64fff\	.
.	.	.	.	.	.	64ddd\JJJJ)	.
8r	.	.	.	.	.	(64eee\LLLL	.
.	.	.	.	.	.	64ccc\	.
.	.	.	.	.	.	64ddd\	.
.	.	.	.	.	.	64bb\	.
.	.	.	.	.	.	64ccc\	.
.	.	.	.	.	.	64gg\	.
.	.	.	.	.	.	64aa\	.
.	.	.	.	.	.	64ff\JJJJ	.
=132	=132	=132	=132	=132	=132	=132	=132
2r	.	2r	.	2r	.	64gg\LLLL	.
.	.	.	.	.	.	64een\	.
.	.	.	.	.	.	64ff\	.
.	.	.	.	.	.	64ddn\	.
.	.	.	.	.	.	64ee\	.
.	.	.	.	.	.	64cc\	.
.	.	.	.	.	.	64dd\	.
.	.	.	.	.	.	64bn\JJJJ	.
.	.	.	.	.	.	64cc\LLLL	.
.	.	.	.	.	.	64b\	.
.	.	.	.	.	.	64dd\	.
.	.	.	.	.	.	64b\	.
.	.	.	.	.	.	64cc\	.
.	.	.	.	.	.	64b\	.
.	.	.	.	.	.	64dd\	.
.	.	.	.	.	.	64b\JJJJ	.
.	.	.	.	.	.	64cc\LLLL	.
.	.	.	.	.	.	64b\	.
.	.	.	.	.	.	64dd\	.
.	.	.	.	.	.	64b\	.
.	.	.	.	.	.	64cc\	.
.	.	.	.	.	.	64b\	.
.	.	.	.	.	.	64dd\	.
.	.	.	.	.	.	64b\JJJJ	.
.	.	.	.	.	.	64cc\LLLL	.
.	.	.	.	.	.	64b\	.
.	.	.	.	.	.	64dd\	.
.	.	.	.	.	.	64b\	.
.	.	.	.	.	.	64cc\	.
.	.	.	.	.	.	64b\	.
.	.	.	.	.	.	64dd\	.
.	.	.	.	.	.	64b\JJJJ)	.
=133	=133	=133	=133	=133	=133	=133	=133
*	*	*	*	*	*	*^	*
8CC/	.	8En/ 8G/	.	8c/	.	2cc\	24...cc\	.
.	.	.	.	.	.	.	32dd-\	.
.	.	.	.	.	.	.	32cc\	.
8r	.	8r	.	8r	.	.	.	.
.	.	.	.	.	.	.	32dd-\	.
.	.	.	.	.	.	.	32cc\	.
.	.	.	.	.	.	.	32dd-\	.
.	.	.	.	.	.	.	32cc\	.
4r	.	4r	.	4r	.	.	.	.
.	.	.	.	.	.	.	32dd-\	.
.	.	.	.	.	.	.	32cc\	.
.	.	.	.	.	.	.	32dd-\	.
.	.	.	.	.	.	.	32cc\	.
.	.	.	.	.	.	.	32dd-\	.
.	.	.	.	.	.	.	32cc\	.
.	.	.	.	.	.	.	32dd-\	.
.	.	.	.	.	.	.	32cc\	.
*	*	*	*	*	*	*v	*v	*
==	==	==	==	==	==	==	==
*-	*-	*-	*-	*-	*-	*-	*-
!!!ENC: Craig Stuart Sapp
!!!END: 2004/09/09/
